; generated by PrusaSlicer 2.2.0+win64 on 2020-09-25 at 18:25:37 UTC

; 

; external perimeters extrusion width = 0.45mm
; perimeters extrusion width = 0.45mm
; infill extrusion width = 0.45mm
; solid infill extrusion width = 0.45mm
; top infill extrusion width = 0.40mm
; first layer extrusion width = 0.42mm

; external perimeters extrusion width = 0.45mm
; perimeters extrusion width = 0.45mm
; infill extrusion width = 0.45mm
; solid infill extrusion width = 0.45mm
; top infill extrusion width = 0.40mm
; first layer extrusion width = 0.42mm

; external perimeters extrusion width = 0.45mm
; perimeters extrusion width = 0.45mm
; infill extrusion width = 0.45mm
; solid infill extrusion width = 0.45mm
; top infill extrusion width = 0.40mm
; first layer extrusion width = 0.42mm

; external perimeters extrusion width = 0.45mm
; perimeters extrusion width = 0.45mm
; infill extrusion width = 0.45mm
; solid infill extrusion width = 0.45mm
; top infill extrusion width = 0.40mm
; first layer extrusion width = 0.42mm

; external perimeters extrusion width = 0.45mm
; perimeters extrusion width = 0.45mm
; infill extrusion width = 0.45mm
; solid infill extrusion width = 0.45mm
; top infill extrusion width = 0.40mm
; first layer extrusion width = 0.42mm

; external perimeters extrusion width = 0.45mm
; perimeters extrusion width = 0.45mm
; infill extrusion width = 0.45mm
; solid infill extrusion width = 0.45mm
; top infill extrusion width = 0.40mm
; first layer extrusion width = 0.42mm

M73 P0 R148
M73 Q0 S151
M201 X1000 Y1000 Z200 E8000 ; sets maximum accelerations, mm/sec^2
M203 X200 Y200 Z12 E120 ; sets maximum feedrates, mm/sec
M204 P1250 R1250 T1250 ; sets acceleration (P, T) and retract acceleration (R), mm/sec^2
M205 X8.00 Y8.00 Z0.40 E4.50 ; sets the jerk limits, mm/sec
M205 S0 T0 ; sets the minimum extruding and travel feed rate, mm/sec
M107
M862.3 P "MK3SMMU2S" ; printer model check
M862.1 P0.4 ; nozzle diameter check
M115 U3.9.0 ; tell printer latest fw version
G90 ; use absolute coordinates
M83 ; extruder relative mode
M104 S215 ; set extruder temp
M140 S60 ; set bed temp
M190 S60 ; wait for bed temp
M109 S215 ; wait for extruder temp
G28 W ; home all without mesh bed level
G80 ; mesh bed leveling

; Send the filament type to the MMU2.0 unit.
; E stands for extruder number, F stands for filament type (0: default; 1:flex; 2: PVA)
M403 E0 F0
M403 E1 F0
M403 E2 F0
M403 E3 F0
M403 E4 F0


;go outside print area
G1 Y-3.0 F1000.0
G1 Z0.4 F1000.0
; select extruder
T1
; initial load
G1 X55.0 E29.0 F1073.0
M73 Q0 S151
M73 P0 R148
G1 X5.0 E29.0 F1800.0
G1 X55.0 E8.0 F2000.0
G1 Z0.3 F1000.0
G92 E0.0
G1 X240.0 E25.0 F2200.0
G1 Y-2.0 F1000.0
G1 X55.0 E25 F1400.0
G1 Z0.20 F1000.0
G1 X5.0 E4.0 F1000.0
G92 E0.0


M221 S95
G92 E0.0

; Don't change E values below. Excessive value can damage the printer.

M907 E538 ; set extruder motor current
G21 ; set units to millimeters
G90 ; use absolute coordinates
M83 ; use relative distances for extrusion
T1
M900 K0.06 ; Filament gcode LA 1.5
M900 K30 ; Filament gcode LA 1.0
G1 Z0.200 F10800.000
;BEFORE_LAYER_CHANGE
G92 E0.0
;0.2


G1 E-0.80000 F2100.00000
G1 Z0.800 F10800.000
G1 Z0.200
;AFTER_LAYER_CHANGE
;0.2
G1 E-2.20000 F2100.00000
G1 Z0.800 F10800.000
G1 X233.000 Y125.000
G1 Z0.200
G1 E3.00000 F2100.00000
;-------------------------------------
; CP WIPE TOWER FIRST LAYER BRIM START
G1  X233.000 Y139.060  E0.8016 F2400
G1  X230.457 Y139.517   F7000
G1  Y124.543  E0.6260 F2100
G1  X169.543  E2.5466
G1  Y139.517  E0.6260
G1  X230.457  E2.5466
G1  X230.914 Y139.974   F7000
G1  Y124.086  E0.6642 F2100
G1  X169.086  E2.5849
G1  Y139.974  E0.6642
G1  X230.914  E2.5849
G1  X231.371 Y140.431   F7000
G1  Y123.629  E0.7025 F2100
G1  X168.629  E2.6231
G1  Y140.431  E0.7025
G1  X231.371  E2.6231
G1  X231.828 Y140.888   F7000
G1  Y123.172  E0.7407 F2100
G1  X168.172  E2.6613
G1  Y140.888  E0.7407
G1  X231.828  E2.6613
G1  X230.000 Y139.060   F7000
G1  X170.000 
G1  X230.000 
; CP WIPE TOWER FIRST LAYER BRIM END
;-----------------------------------

G1 F8640.000
G1 X226.709 Y139.060 E-0.76000
G1 E-0.04000 F2100.00000
G1 Z0.800 F10800.000
G1 X234.053 Y142.407
G1 Z0.200
G1 E0.80000 F2100.00000
M204 S1000
G1 F1200.000
G1 X233.524 Y142.987 E0.02461
G1 X151.460 Y206.876 E3.26090
G1 X151.041 Y207.137 E0.01550
G1 X150.536 Y207.316 E0.01680
G1 X150.007 Y207.377 E0.01668
G1 X99.996 Y207.377 E1.56805
G1 X99.430 Y207.308 E0.01787
G1 X98.713 Y206.999 E0.02449
G1 X98.135 Y206.474 E0.02449
G1 X97.758 Y205.789 E0.02449
G1 X97.623 Y205.020 E0.02449
G1 X97.623 Y5.000 E6.27149
M73 Q0 S150
M73 P0 R147
G1 X97.692 Y4.430 E0.01799
G1 X97.993 Y3.726 E0.02402
G1 X98.503 Y3.154 E0.02402
G1 X99.168 Y2.773 E0.02402
G1 X99.919 Y2.624 E0.02402
G1 X150.004 Y2.623 E1.57038
G1 X150.566 Y2.691 E0.01775
G1 X151.096 Y2.891 E0.01775
G1 X151.564 Y3.210 E0.01775
G1 X151.943 Y3.630 E0.01775
G1 X234.089 Y121.710 E4.51011
G1 X234.342 Y122.288 E0.01977
G1 X234.434 Y122.911 E0.01977
G1 X234.434 Y141.124 E0.57106
G1 X234.365 Y141.686 E0.01775
G1 X234.077 Y142.352 E0.02273
G1 F8640.000
G1 X233.524 Y142.987 E-0.19438
G1 X231.592 Y144.492 E-0.56562
G1 E-0.04000 F2100.00000
G1 Z0.800 F10800.000
G1 X131.073 Y83.679
G1 Z0.200
G1 E0.80000 F2100.00000
G1 F1200.000
G1 X131.078 Y83.226 E0.01420
G1 X131.112 Y83.108 E0.00384
G1 X131.148 Y83.105 E0.00114
G1 X131.168 Y83.139 E0.00122
G1 X131.182 Y83.260 E0.00384
G1 X131.096 Y83.624 E0.01170
G1 X131.099 Y83.280 F10800.000
G1 F8640.000
G1 X131.078 Y83.226 E-0.09191
G1 X131.112 Y83.108 E-0.02826
G1 X131.148 Y83.105 E-0.00837
G1 X131.168 Y83.139 E-0.00902
G1 X131.182 Y83.260 E-0.02827
G1 X131.096 Y83.624 E-0.08620
G1 E-0.54798 F2100.00000
G1 Z0.800 F10800.000
G1 X137.686 Y68.694
G1 Z0.200
G1 E0.80000 F2100.00000
G1 F1200.000
G1 X137.643 Y68.462 E0.00740
G1 X137.644 Y67.730 E0.02296
G1 X137.729 Y67.799 E0.00344
G1 X137.825 Y68.059 E0.00868
G1 X137.840 Y68.213 E0.00484
G1 X137.828 Y68.556 E0.01076
G1 X137.791 Y68.659 E0.00345
G1 X137.745 Y68.693 E0.00178
G1 X137.720 Y68.460 F10800.000
G1 F8640.000
G1 X137.643 Y68.462 E-0.05825
G1 X137.644 Y67.730 E-0.16906
G1 X137.729 Y67.799 E-0.02537
G1 X137.825 Y68.059 E-0.06394
G1 X137.840 Y68.213 E-0.03565
G1 X137.828 Y68.556 E-0.07923
G1 X137.791 Y68.659 E-0.02541
G1 X137.745 Y68.693 E-0.01313
G1 E-0.32996 F2100.00000
G1 Z0.800 F10800.000
G1 X137.739 Y65.394
G1 Z0.200
G1 E0.80000 F2100.00000
G1 F1200.000
G1 X137.667 Y65.318 E0.00329
G1 X137.618 Y65.156 E0.00532
G1 X137.605 Y64.950 E0.00646
G1 X137.616 Y64.803 E0.00463
G1 X137.651 Y64.702 E0.00335
G1 X137.702 Y64.673 E0.00183
G1 X137.734 Y64.783 E0.00358
G1 X137.739 Y65.334 E0.01729
G1 X137.687 Y65.303 F10800.000
G1 F8640.000
G1 X137.667 Y65.318 E-0.01694
G1 X137.618 Y65.156 E-0.03914
G1 X137.605 Y64.950 E-0.04754
G1 X137.616 Y64.803 E-0.03408
G1 X137.651 Y64.702 E-0.02464
G1 X137.702 Y64.673 E-0.01351
G1 X137.734 Y64.783 E-0.02633
G1 X137.739 Y65.334 E-0.12734
G1 E-0.47048 F2100.00000
G1 Z0.800 F10800.000
G1 X106.097 Y137.002
G1 Z0.200
G1 E0.80000 F2100.00000
G1 F1200.000
G1 X106.119 Y137.581 E0.01818
G1 X106.062 Y137.605 E0.00194
G1 X106.074 Y137.042 E0.01763
G1 X105.743 Y136.815 F10800.000
G1 F8640.000
G1 X106.119 Y137.581 E-0.12485
G1 X106.062 Y137.605 E-0.01427
G1 X106.074 Y137.042 E-0.12986
G1 E-0.53102 F2100.00000
G1 Z0.800 F10800.000
G1 X128.029 Y139.178
G1 Z0.200
G1 E0.80000 F2100.00000
G1 F1200.000
G1 X128.030 Y139.873 E0.02180
G1 X128.029 Y139.238 E0.01992
G1 X128.030 Y139.578 F10800.000
G1 F8640.000
G1 X128.030 Y139.873 E-0.14671
G1 X128.029 Y139.238 E-0.14671
G1 E-0.50657 F2100.00000
G1 Z0.800 F10800.000
G1 X128.030 Y137.550
G1 Z0.200
G1 E0.80000 F2100.00000
G1 F1200.000
G1 X128.034 Y137.134 E0.01304
G1 X128.033 Y137.490 E0.01117
G1 X128.378 Y137.352 F10800.000
G1 F8640.000
G1 X128.034 Y137.134 E-0.08224
G1 X128.033 Y137.490 E-0.08224
G1 E-0.63553 F2100.00000
G1 Z0.800 F10800.000
G1 X131.074 Y137.528
G1 Z0.200
G1 E0.80000 F2100.00000
G1 F1200.000
G1 X131.078 Y137.132 E0.01239
G1 X131.112 Y137.015 E0.00384
G1 X131.148 Y137.012 E0.00114
G1 X131.168 Y137.045 E0.00122
G1 X131.182 Y137.167 E0.00384
G1 X131.120 Y137.474 E0.00984
G1 X131.074 Y137.583 E0.00371
G1 X131.115 Y137.135 F10800.000
G1 F8640.000
G1 X131.078 Y137.132 E-0.10406
G1 X131.112 Y137.015 E-0.02826
G1 X131.148 Y137.012 E-0.00837
G1 X131.168 Y137.045 E-0.00902
G1 X131.182 Y137.167 E-0.02827
G1 X131.120 Y137.474 E-0.07246
G1 X131.074 Y137.583 E-0.02730
G1 E-0.52227 F2100.00000
G1 Z0.800 F10800.000
G1 X127.993 Y164.005
G1 Z0.200
G1 E0.80000 F2100.00000
G1 F1200.000
G1 X128.013 Y164.038 E0.00122
G1 X128.027 Y164.160 E0.00384
G1 X127.965 Y164.467 E0.00984
G1 X127.918 Y164.578 E0.00378
G1 X127.923 Y164.125 E0.01420
G1 X127.950 Y164.030 E0.00309
G1 X128.005 Y164.042 F10800.000
G1 X127.723 Y164.970
G1 F1200.000
G1 X127.170 Y165.946 E0.03514
G1 X126.448 Y167.134 E0.04361
G1 X126.448 Y164.970 E0.06783
G1 X127.663 Y164.970 E0.03811
G1 X127.524 Y165.317 F10800.000
G1 F8640.000
G1 X127.170 Y165.946 E-0.25228
G1 X126.448 Y167.134 E-0.32115
G1 X126.448 Y166.326 E-0.18658
G1 E-0.04000 F2100.00000
G1 Z0.800 F10800.000
G1 X102.961 Y164.591
G1 Z0.200
G1 E0.80000 F2100.00000
G1 F1200.000
G1 X102.904 Y164.615 E0.00194
G1 X102.920 Y164.012 E0.01890
G1 X102.951 Y164.028 E0.00111
G1 X102.960 Y164.531 E0.01579
G1 X102.901 Y164.576 F10800.000
G1 F8640.000
G1 X102.904 Y164.615 E-0.02322
G1 X102.920 Y164.012 E-0.13922
G1 X102.951 Y164.028 E-0.00821
G1 X102.960 Y164.531 E-0.11628
G1 E-0.51307 F2100.00000
G1 Z0.800 F10800.000
G1 X129.978 Y138.799
G1 Z0.200
G1 E0.80000 F2100.00000
G1 F1200.000
G1 X129.940 Y138.599 E0.00639
G1 X129.864 Y138.354 E0.00802
G1 X130.231 Y138.354 E0.01152
G1 X130.009 Y138.747 E0.01415
G1 F8640.000
G1 X129.940 Y138.599 E-0.03783
G1 X129.864 Y138.354 E-0.05904
G1 X130.231 Y138.354 E-0.08482
G1 X130.009 Y138.747 E-0.10424
G1 E-0.51407 F2100.00000
G1 Z0.800 F10800.000
G1 X127.076 Y165.347
G1 Z0.200
G1 E0.80000 F2100.00000
G1 F1200.000
G1 X126.825 Y165.788 E0.01592
G1 X126.825 Y165.347 E0.01383
G1 X127.016 Y165.347 E0.00600
G1 F8640.000
G1 X126.825 Y165.788 E-0.11101
G1 X126.825 Y165.347 E-0.10184
G1 X127.016 Y165.347 E-0.04417
G1 E-0.54299 F2100.00000
G1 Z0.800 F10800.000
G1 X129.048 Y166.494
G1 Z0.200
G1 E0.80000 F2100.00000
G1 F1200.000
G1 X129.111 Y166.392 E0.00376
G1 X129.108 Y166.494 E0.00320
G1 F8640.000
G1 X129.111 Y166.392 E-0.02355
G1 X129.108 Y166.494 E-0.02355
G1 E-0.75289 F2100.00000
G1 Z0.800 F10800.000
G1 X146.075 Y200.215
G1 Z0.200
G1 E0.80000 F2100.00000
G1 F1200.000
G1 X146.327 Y200.105 E0.00861
G1 X146.591 Y200.031 E0.00861
G1 X146.863 Y199.994 E0.00861
G1 X147.137 Y199.994 E0.00861
G1 X147.409 Y200.031 E0.00861
G1 X147.673 Y200.105 E0.00861
G1 X147.905 Y200.206 E0.00791
G1 X148.159 Y200.356 E0.00926
G1 X148.373 Y200.530 E0.00864
G1 X148.560 Y200.731 E0.00861
G1 X148.718 Y200.955 E0.00861
G1 X148.844 Y201.199 E0.00861
G1 X148.936 Y201.457 E0.00861
G1 X148.992 Y201.726 E0.00861
G1 X149.011 Y202.000 E0.00861
G1 X148.992 Y202.274 E0.00861
G1 X148.936 Y202.543 E0.00861
G1 X148.844 Y202.801 E0.00861
G1 X148.718 Y203.045 E0.00861
G1 X148.560 Y203.269 E0.00861
G1 X148.373 Y203.470 E0.00861
G1 X148.160 Y203.643 E0.00861
G1 X147.925 Y203.785 E0.00861
G1 X147.673 Y203.895 E0.00861
G1 X147.409 Y203.969 E0.00861
G1 X147.137 Y204.006 E0.00861
G1 X146.863 Y204.006 E0.00861
G1 X146.591 Y203.969 E0.00861
G1 X146.327 Y203.895 E0.00861
G1 X146.095 Y203.794 E0.00791
G1 X145.841 Y203.644 E0.00926
G1 X145.627 Y203.470 E0.00864
G1 X145.440 Y203.269 E0.00861
G1 X145.282 Y203.045 E0.00861
G1 X145.156 Y202.801 E0.00861
G1 X145.064 Y202.543 E0.00861
G1 X145.008 Y202.274 E0.00861
G1 X144.989 Y202.000 E0.00861
G1 X145.008 Y201.726 E0.00861
G1 X145.064 Y201.457 E0.00861
G1 X145.156 Y201.199 E0.00861
G1 X145.282 Y200.955 E0.00861
G1 X145.440 Y200.731 E0.00861
G1 X145.627 Y200.530 E0.00861
G1 X145.840 Y200.357 E0.00861
G1 X146.024 Y200.246 E0.00672
G1 X146.087 Y199.940 F10800.000
G1 F8640.000
G1 X146.327 Y200.105 E-0.07713
G1 X146.591 Y200.031 E-0.06338
G1 X146.863 Y199.994 E-0.06337
G1 X147.137 Y199.994 E-0.06337
G1 X147.409 Y200.031 E-0.06337
G1 X147.673 Y200.105 E-0.06338
G1 X147.905 Y200.206 E-0.05829
G1 X148.159 Y200.356 E-0.06816
G1 X148.373 Y200.530 E-0.06364
G1 X148.560 Y200.731 E-0.06337
G1 X148.718 Y200.955 E-0.06338
G1 X148.816 Y201.144 E-0.04917
G1 E-0.04000 F2100.00000
G1 Z0.800 F10800.000
G1 X149.213 Y202.890
G1 Z0.200
G1 E0.80000 F2100.00000
G1 F1200.000
G1 X149.213 Y204.213 E0.04146
G1 X147.888 Y204.213 E0.04155
G1 X148.099 Y204.121 E0.00723
G1 X148.378 Y203.952 E0.01022
G1 X148.631 Y203.746 E0.01022
G1 X148.853 Y203.508 E0.01022
G1 X149.041 Y203.241 E0.01022
G1 X149.193 Y202.947 E0.01038
G1 F8640.000
G1 X149.213 Y204.213 E-0.29234
G1 X147.888 Y204.213 E-0.30601
G1 X148.099 Y204.121 E-0.05323
G1 X148.378 Y203.952 E-0.07528
G1 X148.489 Y203.861 E-0.03313
G1 E-0.04000 F2100.00000
G1 Z0.800 F10800.000
G1 X105.011 Y202.000
G1 Z0.200
G1 E0.80000 F2100.00000
G1 F1200.000
G1 X104.992 Y202.274 E0.00861
G1 X104.936 Y202.543 E0.00861
G1 X104.844 Y202.801 E0.00861
G1 X104.718 Y203.045 E0.00861
G1 X104.560 Y203.269 E0.00861
G1 X104.373 Y203.470 E0.00861
G1 X104.160 Y203.643 E0.00861
G1 X103.925 Y203.785 E0.00861
G1 X103.673 Y203.895 E0.00861
G1 X103.430 Y203.963 E0.00791
G1 X103.138 Y204.006 E0.00926
G1 X102.863 Y204.006 E0.00864
G1 X102.591 Y203.969 E0.00861
G1 X102.327 Y203.895 E0.00861
G1 X102.075 Y203.785 E0.00861
G1 X101.840 Y203.643 E0.00861
G1 X101.627 Y203.470 E0.00861
G1 X101.455 Y203.285 E0.00791
G1 X101.282 Y203.046 E0.00926
G1 X101.156 Y202.801 E0.00864
G1 X101.064 Y202.543 E0.00861
G1 X101.008 Y202.274 E0.00861
G1 X100.989 Y202.000 E0.00861
G1 X101.008 Y201.726 E0.00861
G1 X101.064 Y201.457 E0.00861
G1 X101.156 Y201.199 E0.00861
G1 X101.282 Y200.955 E0.00861
G1 X101.440 Y200.731 E0.00861
G1 X101.627 Y200.530 E0.00861
G1 X101.840 Y200.357 E0.00861
G1 X102.075 Y200.215 E0.00861
G1 X102.327 Y200.105 E0.00861
G1 X102.570 Y200.037 E0.00791
G1 X102.862 Y199.994 E0.00926
G1 X103.137 Y199.994 E0.00864
G1 X103.409 Y200.031 E0.00861
G1 X103.673 Y200.105 E0.00861
G1 X103.925 Y200.215 E0.00861
G1 X104.160 Y200.357 E0.00861
G1 X104.373 Y200.530 E0.00861
G1 X104.545 Y200.715 E0.00791
G1 X104.718 Y200.954 E0.00926
G1 X104.844 Y201.199 E0.00864
G1 X104.936 Y201.457 E0.00861
G1 X104.992 Y201.726 E0.00861
G1 X105.007 Y201.940 E0.00672
G1 X105.249 Y202.137 F10800.000
G1 F8640.000
G1 X104.992 Y202.274 E-0.07712
G1 X104.936 Y202.543 E-0.06338
G1 X104.844 Y202.801 E-0.06337
G1 X104.718 Y203.045 E-0.06337
G1 X104.560 Y203.269 E-0.06338
G1 X104.373 Y203.470 E-0.06338
G1 X104.160 Y203.643 E-0.06337
G1 X103.925 Y203.785 E-0.06338
G1 X103.673 Y203.895 E-0.06338
G1 X103.430 Y203.963 E-0.05828
G1 X103.138 Y204.006 E-0.06817
G1 X102.924 Y204.006 E-0.04943
G1 E-0.04000 F2100.00000
G1 Z0.800 F10800.000
G1 X102.112 Y204.213
G1 Z0.200
G1 E0.80000 F2100.00000
G1 F1200.000
G1 X100.787 Y204.213 E0.04155
G1 X100.787 Y202.890 E0.04146
G1 X100.960 Y203.244 E0.01234
G1 X101.163 Y203.525 E0.01087
G1 X101.369 Y203.746 E0.00947
G1 X101.622 Y203.952 E0.01022
G1 X101.901 Y204.121 E0.01022
G1 X102.057 Y204.189 E0.00535
G1 F8640.000
G1 X100.787 Y204.213 E-0.29336
G1 X100.787 Y202.890 E-0.30536
G1 X100.960 Y203.244 E-0.09091
G1 X101.139 Y203.491 E-0.07037
G1 E-0.04000 F2100.00000
G1 Z0.800 F10800.000
G1 X134.900 Y67.994
G1 Z0.200
G1 E0.80000 F2100.00000
G1 F1200.000
G1 X134.900 Y67.778 E0.00679
G1 X135.321 Y67.778 E0.01320
G1 X135.322 Y67.994 E0.00679
G1 X134.960 Y67.994 E0.01137
G1 F8640.000
G1 X134.900 Y67.778 E-0.05187
G1 X135.321 Y67.778 E-0.09722
G1 X135.322 Y67.994 E-0.04999
G1 X134.960 Y67.994 E-0.08374
G1 E-0.51718 F2100.00000
G1 Z0.800 F10800.000
G1 X135.927 Y66.994
G1 Z0.200
G1 E0.80000 F2100.00000
G1 F1200.000
G1 X135.927 Y66.944 E0.00157
G1 X135.987 Y66.994 E0.00245
G1 F8640.000
G1 X135.927 Y66.944 E-0.01806
G1 X135.987 Y66.994 E-0.01806
G1 E-0.76387 F2100.00000
G1 Z0.800 F10800.000
G1 X135.282 Y65.401
G1 Z0.200
G1 E0.80000 F2100.00000
G1 F1200.000
G1 X134.900 Y65.401 E0.01199
G1 X134.900 Y65.376 E0.00079
G1 X135.246 Y65.376 E0.01084
G1 F8640.000
