; generated by PrusaSlicer 2.2.0+win64 on 2020-10-10 at 18:58:08 UTC

; 

; external perimeters extrusion width = 0.60mm
; perimeters extrusion width = 0.50mm
; infill extrusion width = 0.50mm
; solid infill extrusion width = 0.50mm
; top infill extrusion width = 0.45mm
; first layer extrusion width = 0.42mm

; external perimeters extrusion width = 0.60mm
; perimeters extrusion width = 0.50mm
; infill extrusion width = 0.50mm
; solid infill extrusion width = 0.50mm
; top infill extrusion width = 0.45mm
; first layer extrusion width = 0.42mm

; external perimeters extrusion width = 0.60mm
; perimeters extrusion width = 0.50mm
; infill extrusion width = 0.50mm
; solid infill extrusion width = 0.50mm
; top infill extrusion width = 0.45mm
; first layer extrusion width = 0.42mm

; external perimeters extrusion width = 0.60mm
; perimeters extrusion width = 0.50mm
; infill extrusion width = 0.50mm
; solid infill extrusion width = 0.50mm
; top infill extrusion width = 0.45mm
; first layer extrusion width = 0.42mm

; external perimeters extrusion width = 0.60mm
; perimeters extrusion width = 0.50mm
; infill extrusion width = 0.50mm
; solid infill extrusion width = 0.50mm
; top infill extrusion width = 0.45mm
; first layer extrusion width = 0.42mm

; external perimeters extrusion width = 0.60mm
; perimeters extrusion width = 0.50mm
; infill extrusion width = 0.50mm
; solid infill extrusion width = 0.50mm
; top infill extrusion width = 0.45mm
; first layer extrusion width = 0.42mm

M73 P0 R105
M73 Q0 S106
M201 X1000 Y1000 Z200 E8000 ; sets maximum accelerations, mm/sec^2
M203 X200 Y200 Z12 E120 ; sets maximum feedrates, mm/sec
M204 P1250 R1250 T1250 ; sets acceleration (P, T) and retract acceleration (R), mm/sec^2
M205 X8.00 Y8.00 Z0.40 E4.50 ; sets the jerk limits, mm/sec
M205 S0 T0 ; sets the minimum extruding and travel feed rate, mm/sec
M107
M862.3 P "MK3SMMU2S" ; printer model check
M862.1 P0.4 ; nozzle diameter check
M115 U3.9.0 ; tell printer latest fw version
G90 ; use absolute coordinates
M83 ; extruder relative mode
M104 S215 ; set extruder temp
M140 S60 ; set bed temp
M190 S60 ; wait for bed temp
M109 S215 ; wait for extruder temp
G28 W ; home all without mesh bed level
G80 ; mesh bed leveling

; Send the filament type to the MMU2.0 unit.
; E stands for extruder number, F stands for filament type (0: default; 1:flex; 2: PVA)
M403 E0 F0
M403 E1 F0
M403 E2 F0
M403 E3 F0
M403 E4 F0


;go outside print area
G1 Y-3.0 F1000.0
G1 Z0.4 F1000.0
; select extruder
T1
; initial load
G1 X55.0 E29.0 F1073.0
M73 Q0 S106
M73 P0 R104
G1 X5.0 E29.0 F1800.0
G1 X55.0 E8.0 F2000.0
G1 Z0.3 F1000.0
G92 E0.0
G1 X240.0 E25.0 F2200.0
G1 Y-2.0 F1000.0
G1 X55.0 E25 F1400.0
G1 Z0.20 F1000.0
G1 X5.0 E4.0 F1000.0
G92 E0.0


M221 S95
G92 E0.0

; Don't change E values below. Excessive value can damage the printer.

M907 E538 ; set extruder motor current
G21 ; set units to millimeters
G90 ; use absolute coordinates
M83 ; use relative distances for extrusion
T1
M900 K0.06 ; Filament gcode LA 1.5
M900 K30 ; Filament gcode LA 1.0
G1 Z0.200 F10800.000
;BEFORE_LAYER_CHANGE
G92 E0.0
;0.2


G1 E-0.80000 F2100.00000
G1 Z0.800 F10800.000
G1 Z0.200
;AFTER_LAYER_CHANGE
;0.2
G1 E-2.20000 F2100.00000
G1 Z0.800 F10800.000
G1 X233.000 Y125.000
G1 Z0.200
G1 E3.00000 F2100.00000
;-------------------------------------
; CP WIPE TOWER FIRST LAYER BRIM START
G1  X233.000 Y139.060  E0.8016 F2400
G1  X230.457 Y139.517   F7000
G1  Y124.543  E0.6260 F2100
G1  X169.543  E2.5466
G1  Y139.517  E0.6260
G1  X230.457  E2.5466
G1  X230.914 Y139.974   F7000
G1  Y124.086  E0.6642 F2100
G1  X169.086  E2.5849
G1  Y139.974  E0.6642
G1  X230.914  E2.5849
G1  X231.371 Y140.431   F7000
G1  Y123.629  E0.7025 F2100
G1  X168.629  E2.6231
G1  Y140.431  E0.7025
G1  X231.371  E2.6231
G1  X231.828 Y140.888   F7000
G1  Y123.172  E0.7407 F2100
G1  X168.172  E2.6613
G1  Y140.888  E0.7407
G1  X231.828  E2.6613
G1  X230.000 Y139.060   F7000
G1  X170.000 
G1  X230.000 
; CP WIPE TOWER FIRST LAYER BRIM END
;-----------------------------------

G1 F8640.000
G1 X226.709 Y139.060 E-0.76000
G1 E-0.04000 F2100.00000
G1 Z0.800 F10800.000
G1 X234.053 Y142.407
G1 Z0.200
G1 E0.80000 F2100.00000
M204 S1000
G1 F1200.000
G1 X233.524 Y142.987 E0.02461
G1 X151.460 Y206.876 E3.26090
G1 X151.041 Y207.137 E0.01550
G1 X150.536 Y207.316 E0.01680
G1 X150.007 Y207.377 E0.01668
G1 X99.996 Y207.377 E1.56805
G1 X99.430 Y207.308 E0.01787
G1 X98.713 Y206.999 E0.02449
G1 X98.135 Y206.474 E0.02449
G1 X97.758 Y205.789 E0.02449
G1 X97.623 Y205.020 E0.02449
G1 X97.623 Y5.000 E6.27149
M73 Q1 S105
M73 P1 R103
G1 X97.692 Y4.430 E0.01799
G1 X97.993 Y3.726 E0.02402
G1 X98.503 Y3.154 E0.02402
G1 X99.168 Y2.773 E0.02402
G1 X99.919 Y2.624 E0.02402
G1 X150.004 Y2.623 E1.57038
G1 X150.566 Y2.691 E0.01775
G1 X151.096 Y2.891 E0.01775
G1 X151.564 Y3.210 E0.01775
G1 X151.943 Y3.630 E0.01775
G1 X234.089 Y121.710 E4.51011
G1 X234.342 Y122.288 E0.01977
G1 X234.434 Y122.911 E0.01977
G1 X234.434 Y141.124 E0.57106
G1 X234.365 Y141.686 E0.01775
G1 X234.077 Y142.352 E0.02273
G1 F8640.000
G1 X233.524 Y142.987 E-0.19438
G1 X231.592 Y144.492 E-0.56562
G1 E-0.04000 F2100.00000
G1 Z0.800 F10800.000
G1 X115.788 Y18.412
G1 Z0.200
G1 E0.80000 F2100.00000
G1 F1200.000
G1 X115.712 Y18.429 E0.00242
G1 X115.660 Y18.420 E0.00166
G1 X115.638 Y18.390 E0.00117
G1 X115.588 Y18.104 E0.00911
G1 X115.581 Y16.982 E0.03517
G1 X115.887 Y16.982 E0.00961
G1 X115.879 Y18.064 E0.03392
G1 X115.822 Y18.363 E0.00956
G1 X115.716 Y18.382 F10800.000
G1 F8640.000
G1 X115.712 Y18.429 E-0.02947
G1 X115.660 Y18.420 E-0.01219
G1 X115.638 Y18.390 E-0.00864
G1 X115.588 Y18.104 E-0.06709
G1 X115.581 Y16.982 E-0.25898
G1 X115.887 Y16.982 E-0.07080
G1 X115.879 Y18.064 E-0.24977
G1 X115.828 Y18.332 E-0.06305
G1 E-0.04000 F2100.00000
G1 Z0.800 F10800.000
G1 X134.248 Y18.402
G1 Z0.200
G1 E0.80000 F2100.00000
G1 F1200.000
G1 X134.196 Y18.202 E0.00649
G1 X134.189 Y18.084 E0.00371
G1 X134.190 Y17.056 E0.03224
G1 X134.391 Y17.221 E0.00816
G1 X134.464 Y17.379 E0.00547
G1 X134.520 Y17.569 E0.00619
G1 X134.540 Y17.769 E0.00632
G1 X134.524 Y18.209 E0.01381
G1 X134.471 Y18.359 E0.00499
G1 X134.406 Y18.417 E0.00273
G1 X134.301 Y18.426 E0.00331
G1 X134.308 Y18.204 F10800.000
G1 F8640.000
G1 X134.196 Y18.202 E-0.05704
G1 X134.189 Y18.084 E-0.02734
G1 X134.190 Y17.056 E-0.23739
G1 X134.391 Y17.221 E-0.06013
G1 X134.464 Y17.379 E-0.04025
G1 X134.520 Y17.569 E-0.04561
G1 X134.540 Y17.769 E-0.04653
G1 X134.524 Y18.209 E-0.10171
G1 X134.471 Y18.359 E-0.03677
G1 X134.406 Y18.417 E-0.02012
G1 X134.301 Y18.426 E-0.02440
G1 E-0.10273 F2100.00000
G1 Z0.800 F10800.000
G1 X134.415 Y14.381
G1 Z0.200
G1 E0.80000 F2100.00000
G1 F1200.000
G1 X134.225 Y14.179 E0.00870
G1 X134.158 Y13.959 E0.00722
G1 X134.141 Y13.692 E0.00837
G1 X134.155 Y13.498 E0.00612
G1 X134.206 Y13.353 E0.00483
G1 X134.261 Y13.304 E0.00229
G1 X134.315 Y13.293 E0.00172
G1 X134.363 Y13.305 E0.00155
G1 X134.407 Y13.477 E0.00557
G1 X134.414 Y14.321 E0.02648
G1 X134.277 Y14.140 F10800.000
G1 F8640.000
G1 X134.225 Y14.179 E-0.05471
G1 X134.158 Y13.959 E-0.05319
G1 X134.141 Y13.692 E-0.06165
G1 X134.155 Y13.498 E-0.04504
G1 X134.206 Y13.353 E-0.03554
G1 X134.261 Y13.304 E-0.01688
G1 X134.315 Y13.293 E-0.01270
G1 X134.363 Y13.305 E-0.01144
G1 X134.407 Y13.477 E-0.04101
G1 X134.414 Y14.321 E-0.19503
G1 E-0.27280 F2100.00000
G1 Z0.800 F10800.000
G1 X131.484 Y17.081
G1 Z0.200
G1 E0.80000 F2100.00000
G1 F1200.000
G1 X131.488 Y17.645 E0.01769
G1 X130.665 Y17.645 E0.02580
G1 X130.665 Y17.081 E0.01769
G1 X131.424 Y17.081 E0.02379
G1 X131.950 Y16.395 F10800.000
G1 F1200.000
G1 X131.950 Y15.787 E0.01904
G1 X132.171 Y16.058 E0.01095
G1 X132.605 Y16.395 E0.01724
G1 X132.010 Y16.395 E0.01868
G1 F8640.000
G1 X131.950 Y15.787 E-0.14093
G1 X132.171 Y16.058 E-0.08064
G1 X132.605 Y16.395 E-0.12698
G1 X132.010 Y16.395 E-0.13756
G1 E-0.31388 F2100.00000
G1 Z0.800 F10800.000
G1 X131.446 Y14.403
G1 Z0.200
G1 E0.80000 F2100.00000
G1 F1200.000
G1 X130.665 Y14.403 E0.02449
G1 X130.665 Y14.078 E0.01019
G1 X131.426 Y14.078 E0.02385
G1 X131.443 Y14.343 E0.00832
G1 F8640.000
G1 X130.665 Y14.403 E-0.17999
G1 X130.665 Y14.078 E-0.07501
G1 X131.426 Y14.078 E-0.17561
G1 X131.443 Y14.343 E-0.06131
G1 E-0.30808 F2100.00000
G1 Z0.800 F10800.000
G1 X123.690 Y14.078
G1 Z0.200
G1 E0.80000 F2100.00000
G1 F1200.000
G1 X123.690 Y16.324 E0.07042
G1 X123.357 Y14.078 E0.07120
G1 X123.630 Y14.078 E0.00859
G1 F8640.000
G1 X123.690 Y16.324 E-0.51880
G1 X123.537 Y15.291 E-0.24120
G1 E-0.04000 F2100.00000
G1 Z0.800 F10800.000
G1 X104.890 Y8.688
G1 Z0.200
G1 E0.80000 F2100.00000
G1 F1200.000
G1 X104.785 Y8.923 E0.00809
G1 X104.628 Y9.181 E0.00946
G1 X104.447 Y9.397 E0.00883
G1 X104.238 Y9.585 E0.00880
G1 X104.005 Y9.742 E0.00880
G1 X103.753 Y9.865 E0.00880
G1 X103.487 Y9.951 E0.00880
G1 X103.210 Y10.000 E0.00880
G1 X102.930 Y10.010 E0.00880
G1 X102.651 Y9.980 E0.00880
G1 X102.379 Y9.913 E0.00880
G1 X102.118 Y9.807 E0.00880
G1 X101.875 Y9.667 E0.00880
G1 X101.654 Y9.494 E0.00880
G1 X101.459 Y9.293 E0.00880
G1 X101.295 Y9.066 E0.00880
G1 X101.163 Y8.818 E0.00880
G1 X101.075 Y8.576 E0.00809
G1 X101.009 Y8.281 E0.00946
G1 X100.989 Y8.000 E0.00883
G1 X101.009 Y7.720 E0.00880
G1 X101.067 Y7.446 E0.00880
G1 X101.163 Y7.182 E0.00880
G1 X101.295 Y6.934 E0.00880
G1 X101.459 Y6.707 E0.00880
G1 X101.654 Y6.506 E0.00880
G1 X101.875 Y6.333 E0.00880
G1 X102.118 Y6.193 E0.00880
G1 X102.379 Y6.087 E0.00880
G1 X102.651 Y6.020 E0.00880
G1 X102.907 Y5.993 E0.00809
G1 X103.209 Y6.000 E0.00946
G1 X103.487 Y6.049 E0.00883
G1 X103.753 Y6.135 E0.00880
G1 X104.006 Y6.258 E0.00880
G1 X104.238 Y6.415 E0.00880
G1 X104.447 Y6.603 E0.00880
G1 X104.627 Y6.818 E0.00880
G1 X104.776 Y7.056 E0.00880
G1 X104.890 Y7.312 E0.00880
G1 X104.961 Y7.560 E0.00809
G1 X105.006 Y7.859 E0.00946
G1 X105.006 Y8.140 E0.00883
G1 X104.967 Y8.418 E0.00880
G1 X104.906 Y8.630 E0.00692
G1 X105.056 Y8.885 F10800.000
G1 F8640.000
G1 X104.785 Y8.923 E-0.07331
G1 X104.628 Y9.181 E-0.06968
G1 X104.447 Y9.397 E-0.06505
G1 X104.238 Y9.585 E-0.06478
G1 X104.005 Y9.742 E-0.06478
G1 X103.753 Y9.865 E-0.06478
G1 X103.487 Y9.951 E-0.06478
G1 X103.210 Y10.000 E-0.06478
G1 X102.930 Y10.010 E-0.06478
G1 X102.651 Y9.980 E-0.06478
G1 X102.379 Y9.913 E-0.06478
G1 X102.243 Y9.858 E-0.03369
G1 E-0.04000 F2100.00000
G1 Z0.800 F10800.000
G1 X102.115 Y5.787
G1 Z0.200
G1 E0.80000 F2100.00000
G1 F1200.000
G1 X101.953 Y5.853 E0.00550
G1 X101.664 Y6.019 E0.01045
G1 X101.401 Y6.225 E0.01045
G1 X101.170 Y6.464 E0.01045
G1 X100.974 Y6.734 E0.01045
G1 X100.787 Y7.112 E0.01322
G1 X100.787 Y5.787 E0.04154
G1 X102.055 Y5.787 E0.03977
G1 F8640.000
G1 X101.953 Y5.853 E-0.02814
G1 X101.664 Y6.019 E-0.07696
G1 X101.401 Y6.225 E-0.07696
G1 X101.170 Y6.464 E-0.07695
G1 X100.974 Y6.734 E-0.07696
G1 X100.787 Y7.112 E-0.09737
G1 X100.787 Y5.787 E-0.30593
G1 X100.877 Y5.787 E-0.02074
G1 E-0.04000 F2100.00000
G1 Z0.800 F10800.000
G1 X123.649 Y110.372
G1 Z0.200
G1 E0.80000 F2100.00000
G1 F1200.000
G1 X124.095 Y110.284 E0.01425
G1 X124.546 Y110.230 E0.01425
G1 X124.978 Y110.213 E0.01356
G1 X125.453 Y110.230 E0.01490
G1 X125.905 Y110.284 E0.01428
G1 X126.351 Y110.372 E0.01425
G1 X126.788 Y110.496 E0.01425
G1 X127.215 Y110.653 E0.01425
G1 X127.628 Y110.843 E0.01425
G1 X128.024 Y111.065 E0.01425
G1 X128.402 Y111.318 E0.01425
G1 X128.759 Y111.599 E0.01425
G1 X129.093 Y111.907 E0.01425
G1 X129.401 Y112.241 E0.01425
G1 X129.682 Y112.598 E0.01425
G1 X129.923 Y112.958 E0.01356
G1 X130.156 Y113.371 E0.01490
G1 X130.347 Y113.785 E0.01428
G1 X130.504 Y114.212 E0.01425
G1 X130.628 Y114.649 E0.01425
G1 X130.716 Y115.095 E0.01425
G1 X130.770 Y115.546 E0.01425
G1 X130.788 Y116.000 E0.01425
G1 X130.770 Y116.454 E0.01425
G1 X130.716 Y116.905 E0.01425
G1 X130.628 Y117.351 E0.01425
G1 X130.504 Y117.788 E0.01425
G1 X130.347 Y118.215 E0.01425
G1 X130.157 Y118.628 E0.01425
G1 X129.935 Y119.024 E0.01425
G1 X129.682 Y119.402 E0.01425
G1 X129.401 Y119.759 E0.01425
G1 X129.093 Y120.093 E0.01425
G1 X128.759 Y120.401 E0.01425
G1 X128.402 Y120.682 E0.01425
G1 X128.024 Y120.935 E0.01425
G1 X127.628 Y121.157 E0.01425
G1 X127.215 Y121.347 E0.01425
G1 X126.788 Y121.504 E0.01425
G1 X126.351 Y121.628 E0.01425
G1 X125.905 Y121.716 E0.01425
G1 X125.454 Y121.770 E0.01425
G1 X125.000 Y121.788 E0.01425
G1 X124.546 Y121.770 E0.01425
G1 X124.095 Y121.716 E0.01425
G1 X123.649 Y121.628 E0.01425
G1 X123.212 Y121.504 E0.01425
G1 X122.785 Y121.347 E0.01425
G1 X122.372 Y121.157 E0.01425
G1 X121.976 Y120.935 E0.01425
G1 X121.598 Y120.682 E0.01425
G1 X121.241 Y120.401 E0.01425
G1 X120.907 Y120.093 E0.01425
G1 X120.599 Y119.759 E0.01425
G1 X120.318 Y119.402 E0.01425
G1 X120.065 Y119.024 E0.01425
G1 X119.843 Y118.628 E0.01425
G1 X119.653 Y118.215 E0.01425
G1 X119.496 Y117.788 E0.01425
G1 X119.372 Y117.351 E0.01425
G1 X119.288 Y116.927 E0.01356
G1 X119.230 Y116.455 E0.01490
G1 X119.212 Y116.000 E0.01428
G1 X119.230 Y115.546 E0.01425
G1 X119.284 Y115.095 E0.01425
G1 X119.372 Y114.649 E0.01425
G1 X119.490 Y114.233 E0.01356
G1 X119.652 Y113.786 E0.01490
G1 X119.843 Y113.372 E0.01428
G1 X120.065 Y112.976 E0.01425
G1 X120.318 Y112.598 E0.01425
G1 X120.599 Y112.241 E0.01425
G1 X120.907 Y111.907 E0.01425
G1 X121.241 Y111.599 E0.01425
G1 X121.598 Y111.318 E0.01425
G1 X121.958 Y111.077 E0.01356
G1 X122.371 Y110.844 E0.01490
G1 X122.785 Y110.653 E0.01428
G1 X123.212 Y110.496 E0.01425
G1 X123.591 Y110.389 E0.01237
G1 X123.693 Y110.751 F10800.000
G1 F1200.000
G1 X124.154 Y110.656 E0.01473
G1 X124.576 Y110.606 E0.01332
G1 X124.979 Y110.591 E0.01265
G1 X125.424 Y110.606 E0.01397
G1 X125.846 Y110.656 E0.01333
G1 X126.263 Y110.739 E0.01332
G1 X126.672 Y110.854 E0.01332
G1 X127.070 Y111.002 E0.01332
G1 X127.456 Y111.179 E0.01332
G1 X127.827 Y111.387 E0.01332
G1 X128.180 Y111.623 E0.01332
G1 X128.514 Y111.886 E0.01332
G1 X128.826 Y112.174 E0.01332
G1 X129.114 Y112.486 E0.01332
G1 X129.377 Y112.820 E0.01332
G1 X129.601 Y113.155 E0.01265
G1 X129.820 Y113.543 E0.01397
G1 X129.998 Y113.930 E0.01333
G1 X130.146 Y114.328 E0.01332
G1 X130.261 Y114.737 E0.01332
G1 X130.344 Y115.154 E0.01332
G1 X130.394 Y115.576 E0.01332
G1 X130.410 Y116.000 E0.01332
G1 X130.394 Y116.424 E0.01332
G1 X130.344 Y116.846 E0.01332
G1 X130.261 Y117.263 E0.01332
G1 X130.146 Y117.672 E0.01332
G1 X129.998 Y118.070 E0.01332
G1 X129.821 Y118.456 E0.01332
G1 X129.613 Y118.827 E0.01332
G1 X129.377 Y119.180 E0.01332
G1 X129.114 Y119.514 E0.01332
G1 X128.826 Y119.826 E0.01332
G1 X128.514 Y120.114 E0.01332
G1 X128.180 Y120.377 E0.01332
G1 X127.827 Y120.613 E0.01332
G1 X127.456 Y120.821 E0.01332
G1 X127.070 Y120.998 E0.01332
G1 X126.672 Y121.146 E0.01332
G1 X126.263 Y121.261 E0.01332
G1 X125.846 Y121.344 E0.01332
G1 X125.424 Y121.394 E0.01332
G1 X125.000 Y121.410 E0.01332
G1 X124.576 Y121.394 E0.01332
G1 X124.154 Y121.344 E0.01332
G1 X123.737 Y121.261 E0.01332
G1 X123.328 Y121.146 E0.01332
G1 X122.930 Y120.998 E0.01332
G1 X122.544 Y120.821 E0.01332
G1 X122.173 Y120.613 E0.01332
G1 X121.820 Y120.377 E0.01332
G1 X121.486 Y120.114 E0.01332
G1 X121.174 Y119.826 E0.01332
G1 X120.886 Y119.514 E0.01332
G1 X120.623 Y119.180 E0.01332
G1 X120.387 Y118.827 E0.01332
G1 X120.179 Y118.456 E0.01332
G1 X120.002 Y118.070 E0.01332
G1 X119.854 Y117.672 E0.01332
G1 X119.739 Y117.263 E0.01332
G1 X119.660 Y116.867 E0.01265
G1 X119.606 Y116.425 E0.01397
G1 X119.590 Y116.000 E0.01333
G1 X119.606 Y115.576 E0.01332
G1 X119.656 Y115.154 E0.01332
G1 X119.739 Y114.737 E0.01332
G1 X119.849 Y114.349 E0.01265
G1 X120.001 Y113.930 E0.01397
G1 X120.179 Y113.544 E0.01333
G1 X120.387 Y113.173 E0.01332
G1 X120.623 Y112.820 E0.01332
G1 X120.886 Y112.486 E0.01332
G1 X121.174 Y112.174 E0.01332
G1 X121.486 Y111.886 E0.01332
G1 X121.820 Y111.623 E0.01332
G1 X122.155 Y111.399 E0.01265
G1 X122.543 Y111.180 E0.01397
G1 X122.930 Y111.002 E0.01333
G1 X123.328 Y110.854 E0.01332
G1 X123.636 Y110.768 E0.01002
G1 X123.805 Y110.367 F10800.000
G1 F8640.000
G1 X124.154 Y110.656 E-0.12232
G1 X124.576 Y110.606 E-0.09809
G1 X124.979 Y110.591 E-0.09316
G1 X125.424 Y110.606 E-0.10291
G1 X125.846 Y110.656 E-0.09818
G1 X126.263 Y110.739 E-0.09809
