; generated by PrusaSlicer 2.2.0+win64 on 2020-10-19 at 19:03:27 UTC

; 

; external perimeters extrusion width = 0.60mm
; perimeters extrusion width = 0.50mm
; infill extrusion width = 0.50mm
; solid infill extrusion width = 0.50mm
; top infill extrusion width = 0.45mm
; first layer extrusion width = 0.42mm

; external perimeters extrusion width = 0.60mm
; perimeters extrusion width = 0.50mm
; infill extrusion width = 0.50mm
; solid infill extrusion width = 0.50mm
; top infill extrusion width = 0.45mm
; first layer extrusion width = 0.42mm

; external perimeters extrusion width = 0.60mm
; perimeters extrusion width = 0.50mm
; infill extrusion width = 0.50mm
; solid infill extrusion width = 0.50mm
; top infill extrusion width = 0.45mm
; first layer extrusion width = 0.42mm

; external perimeters extrusion width = 0.60mm
; perimeters extrusion width = 0.50mm
; infill extrusion width = 0.50mm
; solid infill extrusion width = 0.50mm
; top infill extrusion width = 0.45mm
; first layer extrusion width = 0.42mm

; external perimeters extrusion width = 0.60mm
; perimeters extrusion width = 0.50mm
; infill extrusion width = 0.50mm
; solid infill extrusion width = 0.50mm
; top infill extrusion width = 0.45mm
; first layer extrusion width = 0.42mm

; external perimeters extrusion width = 0.60mm
; perimeters extrusion width = 0.50mm
; infill extrusion width = 0.50mm
; solid infill extrusion width = 0.50mm
; top infill extrusion width = 0.45mm
; first layer extrusion width = 0.42mm

M73 P0 R118
M73 Q0 S120
M201 X1000 Y1000 Z200 E8000 ; sets maximum accelerations, mm/sec^2
M203 X200 Y200 Z12 E120 ; sets maximum feedrates, mm/sec
M204 P1250 R1250 T1250 ; sets acceleration (P, T) and retract acceleration (R), mm/sec^2
M205 X8.00 Y8.00 Z0.40 E4.50 ; sets the jerk limits, mm/sec
M205 S0 T0 ; sets the minimum extruding and travel feed rate, mm/sec
M107
M862.3 P "MK3SMMU2S" ; printer model check
M862.1 P0.4 ; nozzle diameter check
M115 U3.9.0 ; tell printer latest fw version
G90 ; use absolute coordinates
M83 ; extruder relative mode
M104 S215 ; set extruder temp
M140 S60 ; set bed temp
M190 S60 ; wait for bed temp
M109 S215 ; wait for extruder temp
G28 W ; home all without mesh bed level
G80 ; mesh bed leveling

; Send the filament type to the MMU2.0 unit.
; E stands for extruder number, F stands for filament type (0: default; 1:flex; 2: PVA)
M403 E0 F0
M403 E1 F0
M403 E2 F0
M403 E3 F0
M403 E4 F0


;go outside print area
G1 Y-3.0 F1000.0
G1 Z0.4 F1000.0
; select extruder
T1
; initial load
G1 X55.0 E29.0 F1073.0
M73 Q0 S119
M73 P0 R117
G1 X5.0 E29.0 F1800.0
G1 X55.0 E8.0 F2000.0
G1 Z0.3 F1000.0
G92 E0.0
G1 X240.0 E25.0 F2200.0
G1 Y-2.0 F1000.0
G1 X55.0 E25 F1400.0
G1 Z0.20 F1000.0
G1 X5.0 E4.0 F1000.0
G92 E0.0


M221 S95
G92 E0.0

; Don't change E values below. Excessive value can damage the printer.

M907 E538 ; set extruder motor current
G21 ; set units to millimeters
G90 ; use absolute coordinates
M83 ; use relative distances for extrusion
T1
M900 K0.05 ; Filament gcode LA 1.5
M900 K30 ; Filament gcode LA 1.0
G1 Z0.200 F10800.000
;BEFORE_LAYER_CHANGE
G92 E0.0
;0.2


G1 E-0.80000 F2100.00000
G1 Z0.800 F10800.000
G1 Z0.200
;AFTER_LAYER_CHANGE
;0.2
G1 E-2.20000 F2100.00000
G1 Z0.800 F10800.000
G1 X233.000 Y125.000
G1 Z0.200
G1 E3.00000 F2100.00000
;-------------------------------------
; CP WIPE TOWER FIRST LAYER BRIM START
G1  X233.000 Y139.060  E0.8016 F2400
G1  X230.457 Y139.517   F7000
G1  Y124.543  E0.6260 F2100
G1  X169.543  E2.5466
G1  Y139.517  E0.6260
G1  X230.457  E2.5466
G1  X230.914 Y139.974   F7000
G1  Y124.086  E0.6642 F2100
G1  X169.086  E2.5849
G1  Y139.974  E0.6642
G1  X230.914  E2.5849
G1  X231.371 Y140.431   F7000
G1  Y123.629  E0.7025 F2100
G1  X168.629  E2.6231
G1  Y140.431  E0.7025
G1  X231.371  E2.6231
G1  X231.828 Y140.888   F7000
G1  Y123.172  E0.7407 F2100
G1  X168.172  E2.6613
G1  Y140.888  E0.7407
G1  X231.828  E2.6613
G1  X230.000 Y139.060   F7000
G1  X170.000 
G1  X230.000 
; CP WIPE TOWER FIRST LAYER BRIM END
;-----------------------------------

G1 F8640.000
G1 X226.709 Y139.060 E-0.76000
G1 E-0.04000 F2100.00000
G1 Z0.800 F10800.000
G1 X234.053 Y142.407
G1 Z0.200
G1 E0.80000 F2100.00000
M204 S1000
G1 F1200.000
G1 X233.524 Y142.987 E0.02461
G1 X151.460 Y206.876 E3.26090
G1 X151.041 Y207.137 E0.01550
G1 X150.536 Y207.316 E0.01680
G1 X150.007 Y207.377 E0.01668
G1 X99.996 Y207.377 E1.56805
G1 X99.430 Y207.308 E0.01787
G1 X98.713 Y206.999 E0.02449
G1 X98.135 Y206.474 E0.02449
G1 X97.758 Y205.789 E0.02449
G1 X97.623 Y205.020 E0.02449
G1 X97.623 Y5.000 E6.27149
M73 Q1 S118
M73 P1 R116
G1 X97.692 Y4.430 E0.01799
G1 X97.993 Y3.726 E0.02402
G1 X98.503 Y3.154 E0.02402
G1 X99.168 Y2.773 E0.02402
G1 X99.919 Y2.624 E0.02402
G1 X150.004 Y2.623 E1.57038
G1 X150.566 Y2.691 E0.01775
G1 X151.096 Y2.891 E0.01775
G1 X151.564 Y3.210 E0.01775
G1 X151.943 Y3.630 E0.01775
G1 X234.089 Y121.710 E4.51011
G1 X234.342 Y122.288 E0.01977
G1 X234.434 Y122.911 E0.01977
G1 X234.434 Y141.124 E0.57106
G1 X234.365 Y141.686 E0.01775
G1 X234.077 Y142.352 E0.02273
G1 F8640.000
G1 X233.524 Y142.987 E-0.19438
G1 X231.592 Y144.492 E-0.56562
G1 E-0.04000 F2100.00000
G1 Z0.800 F10800.000
G1 X124.311 Y139.672
G1 Z0.200
G1 E0.80000 F2100.00000
G1 F1200.000
G1 X124.297 Y139.690 E0.00072
G1 X124.246 Y139.694 E0.00160
G1 X124.200 Y139.342 E0.01111
G1 X124.200 Y138.624 E0.02254
G1 X124.361 Y138.624 E0.00505
G1 X124.355 Y139.443 E0.02569
G1 X124.322 Y139.613 E0.00543
G1 X124.288 Y139.674 F10800.000
G1 F8640.000
G1 X124.297 Y139.690 E-0.01876
G1 X124.246 Y139.694 E-0.01180
G1 X124.200 Y139.342 E-0.08181
G1 X124.200 Y138.624 E-0.16597
G1 X124.361 Y138.624 E-0.03717
G1 X124.355 Y139.443 E-0.18915
G1 X124.322 Y139.613 E-0.04002
G1 E-0.25531 F2100.00000
G1 Z0.800 F10800.000
G1 X128.656 Y139.694
G1 Z0.200
G1 E0.80000 F2100.00000
G1 F1200.000
G1 X128.610 Y139.342 E0.01111
G1 X128.610 Y138.624 E0.02254
G1 X128.771 Y138.624 E0.00505
G1 X128.765 Y139.443 E0.02569
G1 X128.712 Y139.684 E0.00773
G1 X128.638 Y139.340 F10800.000
G1 F8640.000
G1 X128.610 Y139.342 E-0.08224
G1 X128.610 Y138.624 E-0.16597
G1 X128.771 Y138.624 E-0.03717
G1 X128.765 Y139.443 E-0.18915
G1 X128.712 Y139.684 E-0.05695
G1 E-0.26851 F2100.00000
G1 Z0.800 F10800.000
G1 X132.887 Y101.878
G1 Z0.200
G1 E0.80000 F2100.00000
G1 F1200.000
G1 X132.883 Y101.662 E0.00679
G1 X133.389 Y101.654 E0.01585
G1 X133.392 Y101.870 E0.00679
G1 X132.947 Y101.877 E0.01397
G1 F8640.000
G1 X132.883 Y101.662 E-0.05187
G1 X133.389 Y101.654 E-0.11673
G1 X133.392 Y101.870 E-0.04998
G1 X132.947 Y101.877 E-0.10287
G1 E-0.47855 F2100.00000
G1 Z0.800 F10800.000
G1 X132.905 Y99.284
G1 Z0.200
G1 E0.80000 F2100.00000
G1 F1200.000
G1 X132.845 Y99.285 E0.00188
G1 X132.845 Y99.260 E0.00079
G1 X133.350 Y99.252 E0.01585
G1 X133.351 Y99.277 E0.00079
G1 X132.965 Y99.283 E0.01209
G1 F8640.000
G1 X132.845 Y99.285 E-0.02770
G1 X132.845 Y99.260 E-0.00579
G1 X133.350 Y99.252 E-0.11673
G1 X133.351 Y99.277 E-0.00579
G1 X132.965 Y99.283 E-0.08902
G1 E-0.55497 F2100.00000
G1 Z0.800 F10800.000
G1 X142.319 Y72.443
G1 Z0.200
G1 E0.80000 F2100.00000
G1 F1200.000
G1 X142.319 Y72.417 E0.00079
G1 X142.824 Y72.408 E0.01585
G1 X142.824 Y72.433 E0.00079
G1 X142.379 Y72.441 E0.01397
G1 F8640.000
G1 X142.319 Y72.417 E-0.01501
G1 X142.824 Y72.408 E-0.11673
G1 X142.824 Y72.433 E-0.00579
G1 X142.379 Y72.441 E-0.10287
G1 E-0.55960 F2100.00000
G1 Z0.800 F10800.000
G1 X142.424 Y74.818
G1 Z0.200
G1 E0.80000 F2100.00000
G1 F1200.000
G1 X142.869 Y74.810 E0.01397
G1 X142.873 Y75.026 E0.00679
G1 X142.368 Y75.036 E0.01585
G1 X142.364 Y74.819 E0.00679
G1 F8640.000
G1 X142.869 Y74.810 E-0.11673
G1 X142.873 Y75.026 E-0.04998
G1 X142.368 Y75.036 E-0.11673
G1 X142.364 Y74.819 E-0.04998
G1 E-0.46658 F2100.00000
G1 Z0.800 F10800.000
G1 X135.653 Y75.162
G1 Z0.200
G1 E0.80000 F2100.00000
G1 F1200.000
G1 X134.857 Y75.176 E0.02495
G1 X134.853 Y74.960 E0.00679
G1 X135.616 Y74.946 E0.02393
G1 X135.643 Y75.102 E0.00498
G1 F8640.000
G1 X134.857 Y75.176 E-0.18220
G1 X134.853 Y74.960 E-0.04998
G1 X135.616 Y74.946 E-0.17624
G1 X135.643 Y75.102 E-0.03669
G1 E-0.35489 F2100.00000
G1 Z0.800 F10800.000
G1 X135.215 Y72.576
G1 Z0.200
G1 E0.80000 F2100.00000
G1 F1200.000
G1 X134.809 Y72.583 E0.01273
G1 X134.808 Y72.558 E0.00079
G1 X135.176 Y72.551 E0.01153
G1 F8640.000
G1 X134.809 Y72.583 E-0.08509
G1 X134.808 Y72.558 E-0.00579
G1 X135.176 Y72.551 E-0.08489
G1 E-0.62424 F2100.00000
G1 Z0.800 F10800.000
G1 X134.855 Y48.029
G1 Z0.200
G1 E0.80000 F2100.00000
G1 F1200.000
G1 X134.824 Y48.029 E0.00097
G1 X134.821 Y47.813 E0.00679
G1 X135.286 Y47.807 E0.01457
G1 X135.296 Y48.023 E0.00679
G1 X134.915 Y48.028 E0.01197
G1 F8640.000
G1 X134.824 Y48.029 E-0.02096
G1 X134.821 Y47.813 E-0.04998
G1 X135.286 Y47.807 E-0.10729
G1 X135.296 Y48.023 E-0.05002
G1 X134.915 Y48.028 E-0.08812
G1 E-0.48364 F2100.00000
G1 Z0.800 F10800.000
G1 X134.881 Y45.435
G1 Z0.200
G1 E0.80000 F2100.00000
G1 F1200.000
G1 X134.790 Y45.436 E0.00285
G1 X134.789 Y45.411 E0.00079
G1 X135.255 Y45.405 E0.01461
G1 X135.255 Y45.430 E0.00079
G1 X134.941 Y45.434 E0.00988
G1 F8640.000
G1 X134.790 Y45.436 E-0.03481
G1 X134.789 Y45.411 E-0.00579
G1 X135.255 Y45.405 E-0.10756
G1 X135.255 Y45.430 E-0.00579
G1 X134.941 Y45.434 E-0.07273
G1 E-0.57333 F2100.00000
G1 Z0.800 F10800.000
G1 X149.213 Y7.113
G1 Z0.200
G1 E0.80000 F2100.00000
G1 F1200.000
G1 X149.132 Y6.923 E0.00649
G1 X148.969 Y6.648 E0.01001
G1 X148.772 Y6.398 E0.01001
G1 X148.542 Y6.176 E0.01001
G1 X148.285 Y5.986 E0.01001
G1 X147.886 Y5.787 E0.01399
G1 X149.213 Y5.787 E0.04160
G1 X149.213 Y7.053 E0.03970
G1 X148.844 Y7.210 F10800.000
G1 F1200.000
G1 X148.971 Y7.599 E0.01285
G1 X149.006 Y7.866 E0.00842
G1 X149.006 Y8.134 E0.00842
G1 X148.971 Y8.401 E0.00842
G1 X148.900 Y8.660 E0.00842
G1 X148.795 Y8.907 E0.00842
G1 X148.658 Y9.138 E0.00842
G1 X148.491 Y9.349 E0.00842
G1 X148.298 Y9.536 E0.00842
G1 X148.082 Y9.695 E0.00842
G1 X147.846 Y9.824 E0.00842
G1 X147.596 Y9.921 E0.00842
G1 X147.334 Y9.983 E0.00842
G1 X147.066 Y10.010 E0.00846
G1 X146.777 Y9.997 E0.00906
G1 X146.534 Y9.956 E0.00774
G1 X146.277 Y9.877 E0.00842
G1 X146.034 Y9.763 E0.00842
G1 X145.807 Y9.619 E0.00842
G1 X145.602 Y9.445 E0.00842
G1 X145.422 Y9.246 E0.00842
G1 X145.270 Y9.025 E0.00842
G1 X145.149 Y8.785 E0.00842
G1 X145.061 Y8.531 E0.00842
G1 X145.007 Y8.268 E0.00842
G1 X144.989 Y8.000 E0.00842
G1 X145.007 Y7.732 E0.00842
G1 X145.061 Y7.469 E0.00842
G1 X145.149 Y7.215 E0.00842
G1 X145.270 Y6.975 E0.00842
G1 X145.422 Y6.754 E0.00842
G1 X145.602 Y6.555 E0.00842
G1 X145.807 Y6.381 E0.00842
G1 X146.034 Y6.237 E0.00842
G1 X146.277 Y6.123 E0.00842
G1 X146.535 Y6.044 E0.00846
G1 X146.820 Y5.998 E0.00906
G1 X147.067 Y5.990 E0.00775
G1 X147.334 Y6.017 E0.00842
G1 X147.596 Y6.079 E0.00842
G1 X147.846 Y6.176 E0.00842
G1 X148.082 Y6.305 E0.00842
G1 X148.298 Y6.464 E0.00842
G1 X148.491 Y6.651 E0.00842
G1 X148.658 Y6.862 E0.00842
G1 X148.821 Y7.154 E0.01050
G1 X149.241 Y7.260 F10800.000
G1 F8640.000
G1 X148.971 Y7.599 E-0.10844
G1 X149.006 Y7.866 E-0.06203
G1 X149.006 Y8.134 E-0.06203
G1 X148.971 Y8.401 E-0.06203
G1 X148.900 Y8.660 E-0.06202
G1 X148.795 Y8.907 E-0.06203
G1 X148.658 Y9.138 E-0.06203
G1 X148.491 Y9.349 E-0.06203
G1 X148.298 Y9.536 E-0.06203
G1 X148.082 Y9.695 E-0.06203
G1 X147.846 Y9.824 E-0.06202
G1 X147.720 Y9.873 E-0.03129
G1 E-0.04000 F2100.00000
G1 Z0.800 F10800.000
G1 X125.872 Y109.802
G1 Z0.200
G1 E0.80000 F2100.00000
G1 F1200.000
G1 X126.251 Y109.899 E0.01224
G1 X126.618 Y110.029 E0.01224
G1 X126.973 Y110.193 E0.01224
G1 X127.311 Y110.388 E0.01224
G1 X127.630 Y110.613 E0.01224
G1 X127.927 Y110.866 E0.01224
G1 X128.200 Y111.145 E0.01224
G1 X128.446 Y111.448 E0.01224
G1 X128.664 Y111.772 E0.01224
G1 X128.851 Y112.114 E0.01224
G1 X129.007 Y112.472 E0.01224
G1 X129.129 Y112.843 E0.01224
G1 X129.217 Y113.223 E0.01224
G1 X129.270 Y113.610 E0.01224
G1 X129.288 Y114.000 E0.01224
G1 X129.270 Y114.390 E0.01224
G1 X129.217 Y114.777 E0.01224
G1 X129.129 Y115.157 E0.01224
G1 X129.007 Y115.528 E0.01224
G1 X128.851 Y115.886 E0.01224
G1 X128.664 Y116.228 E0.01224
G1 X128.446 Y116.552 E0.01224
G1 X128.200 Y116.855 E0.01224
G1 X127.927 Y117.134 E0.01224
G1 X127.630 Y117.387 E0.01224
G1 X127.311 Y117.612 E0.01224
G1 X126.973 Y117.807 E0.01224
G1 X126.638 Y117.962 E0.01157
G1 X126.252 Y118.101 E0.01285
G1 X125.872 Y118.198 E0.01228
G1 X125.487 Y118.260 E0.01224
G1 X125.098 Y118.287 E0.01224
G1 X124.707 Y118.278 E0.01224
G1 X124.320 Y118.234 E0.01224
G1 X123.937 Y118.154 E0.01224
G1 X123.564 Y118.040 E0.01224
G1 X123.203 Y117.893 E0.01224
G1 X122.856 Y117.713 E0.01224
G1 X122.527 Y117.503 E0.01224
G1 X122.219 Y117.264 E0.01224
G1 X121.934 Y116.997 E0.01224
G1 X121.674 Y116.706 E0.01224
G1 X121.442 Y116.392 E0.01224
G1 X121.239 Y116.059 E0.01224
G1 X121.067 Y115.708 E0.01224
G1 X120.928 Y115.344 E0.01224
G1 X120.828 Y114.988 E0.01157
G1 X120.752 Y114.585 E0.01285
G1 X120.717 Y114.195 E0.01228
G1 X120.717 Y113.805 E0.01224
G1 X120.752 Y113.416 E0.01224
G1 X120.823 Y113.032 E0.01224
G1 X120.928 Y112.656 E0.01224
G1 X121.060 Y112.312 E0.01157
G1 X121.238 Y111.942 E0.01285
G1 X121.442 Y111.608 E0.01228
G1 X121.674 Y111.294 E0.01224
G1 X121.934 Y111.003 E0.01224
G1 X122.219 Y110.736 E0.01224
G1 X122.527 Y110.497 E0.01224
G1 X122.856 Y110.287 E0.01224
G1 X123.203 Y110.107 E0.01224
G1 X123.564 Y109.960 E0.01224
G1 X123.937 Y109.846 E0.01224
G1 X124.320 Y109.766 E0.01224
G1 X124.707 Y109.722 E0.01224
G1 X125.076 Y109.714 E0.01157
G1 X125.486 Y109.740 E0.01285
G1 X125.813 Y109.792 E0.01040
G1 X125.753 Y110.165 F10800.000
G1 F1200.000
G1 X126.140 Y110.260 E0.01250
G1 X126.476 Y110.379 E0.01116
G1 X126.799 Y110.528 E0.01116
G1 X127.107 Y110.706 E0.01116
G1 X127.398 Y110.911 E0.01116
G1 X127.669 Y111.142 E0.01116
G1 X127.918 Y111.397 E0.01116
G1 X128.143 Y111.673 E0.01116
G1 X128.341 Y111.968 E0.01116
G1 X128.512 Y112.280 E0.01116
G1 X128.654 Y112.607 E0.01116
G1 X128.765 Y112.945 E0.01116
G1 X128.846 Y113.292 E0.01116
G1 X128.894 Y113.644 E0.01116
G1 X128.910 Y114.000 E0.01116
G1 X128.894 Y114.356 E0.01116
G1 X128.846 Y114.708 E0.01116
G1 X128.765 Y115.055 E0.01116
G1 X128.654 Y115.393 E0.01116
G1 X128.512 Y115.720 E0.01116
G1 X128.341 Y116.032 E0.01116
G1 X128.143 Y116.327 E0.01116
G1 X127.918 Y116.603 E0.01116
G1 X127.669 Y116.858 E0.01116
G1 X127.398 Y117.089 E0.01116
G1 X127.107 Y117.294 E0.01116
G1 X126.799 Y117.472 E0.01116
G1 X126.494 Y117.613 E0.01053
G1 X126.141 Y117.740 E0.01178
G1 X125.796 Y117.829 E0.01118
G1 X125.444 Y117.885 E0.01116
G1 X125.089 Y117.909 E0.01116
G1 X124.733 Y117.901 E0.01116
G1 X124.379 Y117.861 E0.01116
G1 X124.031 Y117.788 E0.01116
G1 X123.690 Y117.685 E0.01116
G1 X123.361 Y117.550 E0.01116
G1 X123.045 Y117.387 E0.01116
G1 X122.745 Y117.195 E0.01116
G1 X122.464 Y116.976 E0.01116
G1 X122.204 Y116.733 E0.01116
G1 X121.967 Y116.468 E0.01116
G1 X121.755 Y116.182 E0.01116
G1 X121.570 Y115.878 E0.01116
G1 X121.413 Y115.558 E0.01116
G1 X121.287 Y115.225 E0.01116
G1 X121.196 Y114.902 E0.01053
G1 X121.126 Y114.533 E0.01178
G1 X121.094 Y114.178 E0.01118
G1 X121.094 Y113.822 E0.01116
G1 X121.126 Y113.468 E0.01116
G1 X121.190 Y113.117 E0.01116
G1 X121.287 Y112.775 E0.01116
G1 X121.406 Y112.461 E0.01053
G1 X121.570 Y112.123 E0.01178
G1 X121.755 Y111.818 E0.01118
G1 X121.967 Y111.532 E0.01116
G1 X122.204 Y111.267 E0.01116
G1 X122.464 Y111.024 E0.01116
G1 X122.745 Y110.805 E0.01116
G1 X123.045 Y110.613 E0.01116
G1 X123.361 Y110.450 E0.01116
G1 X123.690 Y110.315 E0.01116
G1 X124.031 Y110.212 E0.01116
G1 X124.379 Y110.139 E0.01116
G1 X124.733 Y110.099 E0.01116
G1 X125.069 Y110.091 E0.01053
G1 X125.444 Y110.115 E0.01178
G1 X125.694 Y110.155 E0.00795
G1 X126.016 Y109.865 F10800.000
G1 F8640.000
G1 X126.140 Y110.260 E-0.10586
G1 X126.476 Y110.379 E-0.08219
G1 X126.799 Y110.528 E-0.08220
G1 X127.107 Y110.706 E-0.08219
G1 X127.398 Y110.911 E-0.08219
G1 X127.669 Y111.142 E-0.08219
G1 X127.918 Y111.397 E-0.08219
G1 X128.143 Y111.673 E-0.08219
G1 X128.333 Y111.956 E-0.07879
G1 E-0.04000 F2100.00000
G1 Z0.800 F10800.000
G1 X126.092 Y104.427
G1 Z0.200
G1 E0.80000 F2100.00000
G1 F1200.000
