; generated by PrusaSlicer 2.2.0+win64 on 2020-09-24 at 04:10:02 UTC

; 

; external perimeters extrusion width = 0.45mm
; perimeters extrusion width = 0.45mm
; infill extrusion width = 0.45mm
; solid infill extrusion width = 0.45mm
; top infill extrusion width = 0.40mm
; first layer extrusion width = 0.42mm

; external perimeters extrusion width = 0.45mm
; perimeters extrusion width = 0.45mm
; infill extrusion width = 0.45mm
; solid infill extrusion width = 0.45mm
; top infill extrusion width = 0.40mm
; first layer extrusion width = 0.42mm

; external perimeters extrusion width = 0.45mm
; perimeters extrusion width = 0.45mm
; infill extrusion width = 0.45mm
; solid infill extrusion width = 0.45mm
; top infill extrusion width = 0.40mm
; first layer extrusion width = 0.42mm

; external perimeters extrusion width = 0.45mm
; perimeters extrusion width = 0.45mm
; infill extrusion width = 0.45mm
; solid infill extrusion width = 0.45mm
; top infill extrusion width = 0.40mm
; first layer extrusion width = 0.42mm

; external perimeters extrusion width = 0.45mm
; perimeters extrusion width = 0.45mm
; infill extrusion width = 0.45mm
; solid infill extrusion width = 0.45mm
; top infill extrusion width = 0.40mm
; first layer extrusion width = 0.42mm

; external perimeters extrusion width = 0.45mm
; perimeters extrusion width = 0.45mm
; infill extrusion width = 0.45mm
; solid infill extrusion width = 0.45mm
; top infill extrusion width = 0.40mm
; first layer extrusion width = 0.42mm

M73 P0 R151
M73 Q0 S154
M201 X1000 Y1000 Z200 E8000 ; sets maximum accelerations, mm/sec^2
M203 X200 Y200 Z12 E120 ; sets maximum feedrates, mm/sec
M204 P1250 R1250 T1250 ; sets acceleration (P, T) and retract acceleration (R), mm/sec^2
M205 X8.00 Y8.00 Z0.40 E4.50 ; sets the jerk limits, mm/sec
M205 S0 T0 ; sets the minimum extruding and travel feed rate, mm/sec
M107
M862.3 P "MK3SMMU2S" ; printer model check
M862.1 P0.4 ; nozzle diameter check
M115 U3.9.0 ; tell printer latest fw version
G90 ; use absolute coordinates
M83 ; extruder relative mode
M104 S215 ; set extruder temp
M140 S60 ; set bed temp
M190 S60 ; wait for bed temp
M109 S215 ; wait for extruder temp
G28 W ; home all without mesh bed level
G80 ; mesh bed leveling

; Send the filament type to the MMU2.0 unit.
; E stands for extruder number, F stands for filament type (0: default; 1:flex; 2: PVA)
M403 E0 F0
M403 E1 F0
M403 E2 F0
M403 E3 F0
M403 E4 F0


;go outside print area
G1 Y-3.0 F1000.0
G1 Z0.4 F1000.0
; select extruder
T1
; initial load
G1 X55.0 E29.0 F1073.0
M73 Q0 S154
M73 P0 R151
G1 X5.0 E29.0 F1800.0
G1 X55.0 E8.0 F2000.0
G1 Z0.3 F1000.0
G92 E0.0
G1 X240.0 E25.0 F2200.0
G1 Y-2.0 F1000.0
G1 X55.0 E25 F1400.0
G1 Z0.20 F1000.0
G1 X5.0 E4.0 F1000.0
G92 E0.0


M221 S95
G92 E0.0

; Don't change E values below. Excessive value can damage the printer.

M907 E538 ; set extruder motor current
G21 ; set units to millimeters
G90 ; use absolute coordinates
M83 ; use relative distances for extrusion
T1
M900 K0.06 ; Filament gcode LA 1.5
M900 K30 ; Filament gcode LA 1.0
G1 Z0.200 F10800.000
;BEFORE_LAYER_CHANGE
G92 E0.0
;0.2


G1 E-0.80000 F2100.00000
G1 Z0.800 F10800.000
G1 Z0.200
;AFTER_LAYER_CHANGE
;0.2
G1 E-2.20000 F2100.00000
G1 Z0.800 F10800.000
G1 X233.000 Y125.000
G1 Z0.200
G1 E3.00000 F2100.00000
;-------------------------------------
; CP WIPE TOWER FIRST LAYER BRIM START
G1  X233.000 Y139.060  E0.8016 F2400
G1  X230.457 Y139.517   F7000
G1  Y124.543  E0.6260 F2100
G1  X169.543  E2.5466
G1  Y139.517  E0.6260
G1  X230.457  E2.5466
G1  X230.914 Y139.974   F7000
G1  Y124.086  E0.6642 F2100
G1  X169.086  E2.5849
G1  Y139.974  E0.6642
G1  X230.914  E2.5849
G1  X231.371 Y140.431   F7000
G1  Y123.629  E0.7025 F2100
G1  X168.629  E2.6231
G1  Y140.431  E0.7025
G1  X231.371  E2.6231
G1  X231.828 Y140.888   F7000
G1  Y123.172  E0.7407 F2100
G1  X168.172  E2.6613
G1  Y140.888  E0.7407
G1  X231.828  E2.6613
G1  X230.000 Y139.060   F7000
G1  X170.000 
G1  X230.000 
; CP WIPE TOWER FIRST LAYER BRIM END
;-----------------------------------

G1 F8640.000
G1 X226.709 Y139.060 E-0.76000
G1 E-0.04000 F2100.00000
G1 Z0.800 F10800.000
G1 X234.053 Y142.407
G1 Z0.200
G1 E0.80000 F2100.00000
M204 S1000
G1 F1200.000
G1 X233.524 Y142.987 E0.02461
G1 X151.460 Y206.876 E3.26090
G1 X151.041 Y207.137 E0.01550
G1 X150.536 Y207.316 E0.01680
G1 X150.007 Y207.377 E0.01668
G1 X99.996 Y207.377 E1.56805
G1 X99.430 Y207.308 E0.01787
G1 X98.713 Y206.999 E0.02449
G1 X98.135 Y206.474 E0.02449
G1 X97.758 Y205.789 E0.02449
G1 X97.623 Y205.020 E0.02449
G1 X97.623 Y5.000 E6.27149
M73 Q0 S153
M73 P0 R150
G1 X97.692 Y4.430 E0.01799
G1 X97.993 Y3.726 E0.02402
G1 X98.503 Y3.154 E0.02402
G1 X99.168 Y2.773 E0.02402
G1 X99.919 Y2.624 E0.02402
G1 X150.004 Y2.623 E1.57038
G1 X150.566 Y2.691 E0.01775
G1 X151.096 Y2.891 E0.01775
G1 X151.564 Y3.210 E0.01775
G1 X151.943 Y3.630 E0.01775
G1 X234.089 Y121.710 E4.51011
G1 X234.342 Y122.288 E0.01977
G1 X234.434 Y122.911 E0.01977
G1 X234.434 Y141.124 E0.57106
G1 X234.365 Y141.686 E0.01775
G1 X234.077 Y142.352 E0.02273
G1 F8640.000
G1 X233.524 Y142.987 E-0.19438
G1 X231.592 Y144.492 E-0.56562
G1 E-0.04000 F2100.00000
G1 Z0.800 F10800.000
G1 X117.882 Y166.624
G1 Z0.200
G1 E0.80000 F2100.00000
G1 F1200.000
G1 X117.876 Y167.443 E0.02569
G1 X117.832 Y167.672 E0.00732
G1 X117.784 Y167.697 E0.00168
G1 X117.768 Y167.694 E0.00053
G1 X117.722 Y167.342 E0.01111
G1 X117.721 Y166.624 E0.02254
G1 X117.822 Y166.624 E0.00317
G1 X117.851 Y167.022 F10800.000
G1 F8640.000
G1 X117.876 Y167.443 E-0.18956
G1 X117.832 Y167.672 E-0.05387
G1 X117.784 Y167.697 E-0.01240
G1 X117.768 Y167.694 E-0.00390
G1 X117.722 Y167.342 E-0.08181
G1 X117.721 Y166.624 E-0.16597
G1 X117.822 Y166.624 E-0.02332
G1 E-0.26916 F2100.00000
G1 Z0.800 F10800.000
G1 X142.721 Y166.624
G1 Z0.200
G1 E0.80000 F2100.00000
G1 F1200.000
G1 X142.882 Y166.624 E0.00505
G1 X142.876 Y167.443 E0.02569
G1 X142.832 Y167.672 E0.00732
G1 X142.784 Y167.697 E0.00168
G1 X142.768 Y167.694 E0.00053
G1 X142.722 Y167.342 E0.01111
G1 X142.721 Y166.684 E0.02066
G1 X142.862 Y166.702 F10800.000
G1 F8640.000
G1 X142.882 Y166.624 E-0.03967
G1 X142.876 Y167.443 E-0.18916
G1 X142.832 Y167.672 E-0.05387
G1 X142.784 Y167.697 E-0.01240
G1 X142.768 Y167.694 E-0.00390
G1 X142.722 Y167.342 E-0.08181
G1 X142.721 Y166.684 E-0.15212
G1 E-0.26708 F2100.00000
G1 Z0.800 F10800.000
G1 X135.632 Y70.127
G1 Z0.200
G1 E0.80000 F2100.00000
G1 F1200.000
G1 X135.126 Y70.127 E0.01585
G1 X135.126 Y69.911 E0.00679
G1 X135.632 Y69.911 E0.01585
G1 X135.632 Y70.067 E0.00491
G1 F8640.000
G1 X135.126 Y70.127 E-0.11755
G1 X135.126 Y69.911 E-0.04998
G1 X135.632 Y69.911 E-0.11673
G1 X135.632 Y70.067 E-0.03613
G1 E-0.47961 F2100.00000
G1 Z0.800 F10800.000
G1 X135.632 Y67.534
G1 Z0.200
G1 E0.80000 F2100.00000
G1 F1200.000
G1 X135.126 Y67.534 E0.01585
G1 X135.126 Y67.508 E0.00079
G1 X135.597 Y67.508 E0.01476
G1 F8640.000
G1 X135.126 Y67.534 E-0.10881
G1 X135.126 Y67.508 E-0.00579
G1 X135.597 Y67.508 E-0.10866
G1 E-0.57674 F2100.00000
G1 Z0.800 F10800.000
G1 X110.632 Y67.508
G1 Z0.200
G1 E0.80000 F2100.00000
G1 F1200.000
G1 X110.632 Y67.534 E0.00079
G1 X110.126 Y67.534 E0.01585
G1 X110.126 Y67.508 E0.00079
G1 X110.572 Y67.508 E0.01397
G1 F8640.000
G1 X110.632 Y67.534 E-0.01501
G1 X110.126 Y67.534 E-0.11673
G1 X110.126 Y67.508 E-0.00579
G1 X110.572 Y67.508 E-0.10287
G1 E-0.55960 F2100.00000
G1 Z0.800 F10800.000
G1 X110.572 Y69.911
G1 Z0.200
G1 E0.80000 F2100.00000
G1 F1200.000
G1 X110.632 Y69.911 E0.00188
G1 X110.632 Y70.127 E0.00679
G1 X110.126 Y70.127 E0.01585
G1 X110.126 Y69.911 E0.00679
G1 X110.512 Y69.911 E0.01209
G1 F8640.000
G1 X110.632 Y69.911 E-0.02771
G1 X110.632 Y70.127 E-0.04998
G1 X110.126 Y70.127 E-0.11673
G1 X110.126 Y69.911 E-0.04998
G1 X110.512 Y69.911 E-0.08902
G1 E-0.46658 F2100.00000
G1 Z0.800 F10800.000
G1 X103.334 Y9.983
G1 Z0.200
G1 E0.80000 F2100.00000
G1 F1200.000
G1 X103.067 Y10.010 E0.00842
G1 X102.799 Y10.001 E0.00842
G1 X102.534 Y9.956 E0.00842
G1 X102.277 Y9.877 E0.00842
G1 X102.034 Y9.763 E0.00842
G1 X101.807 Y9.619 E0.00842
G1 X101.602 Y9.445 E0.00842
G1 X101.422 Y9.246 E0.00842
G1 X101.270 Y9.025 E0.00842
G1 X101.149 Y8.785 E0.00842
G1 X101.061 Y8.531 E0.00842
G1 X101.007 Y8.268 E0.00842
G1 X100.989 Y8.000 E0.00842
G1 X101.007 Y7.732 E0.00842
G1 X101.061 Y7.469 E0.00842
G1 X101.149 Y7.215 E0.00842
G1 X101.270 Y6.975 E0.00842
G1 X101.422 Y6.754 E0.00842
G1 X101.603 Y6.554 E0.00846
G1 X101.825 Y6.369 E0.00906
G1 X102.034 Y6.237 E0.00775
G1 X102.277 Y6.123 E0.00842
G1 X102.535 Y6.044 E0.00846
G1 X102.820 Y5.998 E0.00906
G1 X103.067 Y5.990 E0.00775
G1 X103.334 Y6.017 E0.00842
G1 X103.596 Y6.079 E0.00842
G1 X103.846 Y6.176 E0.00842
G1 X104.082 Y6.305 E0.00842
G1 X104.298 Y6.464 E0.00842
G1 X104.491 Y6.651 E0.00842
G1 X104.658 Y6.862 E0.00842
G1 X104.795 Y7.093 E0.00842
G1 X104.900 Y7.340 E0.00842
G1 X104.971 Y7.599 E0.00842
G1 X105.006 Y7.866 E0.00842
G1 X105.006 Y8.134 E0.00842
G1 X104.971 Y8.401 E0.00842
G1 X104.900 Y8.660 E0.00842
G1 X104.795 Y8.907 E0.00842
G1 X104.658 Y9.138 E0.00842
G1 X104.491 Y9.349 E0.00842
G1 X104.298 Y9.536 E0.00842
G1 X104.082 Y9.695 E0.00842
G1 X103.846 Y9.824 E0.00842
G1 X103.596 Y9.921 E0.00842
G1 X103.393 Y9.969 E0.00654
G1 X103.241 Y10.235 F10800.000
G1 F8640.000
G1 X103.067 Y10.010 E-0.07578
G1 X102.799 Y10.001 E-0.06203
G1 X102.534 Y9.956 E-0.06203
G1 X102.277 Y9.877 E-0.06202
G1 X102.034 Y9.763 E-0.06203
G1 X101.807 Y9.619 E-0.06203
G1 X101.602 Y9.445 E-0.06203
G1 X101.422 Y9.246 E-0.06203
G1 X101.270 Y9.025 E-0.06202
G1 X101.149 Y8.785 E-0.06203
G1 X101.061 Y8.531 E-0.06202
G1 X101.007 Y8.268 E-0.06203
G1 X101.006 Y8.260 E-0.00192
G1 E-0.04000 F2100.00000
G1 Z0.800 F10800.000
G1 X100.787 Y7.107
G1 Z0.200
G1 E0.80000 F2100.00000
G1 F1200.000
G1 X100.787 Y5.787 E0.04138
G1 X102.106 Y5.787 E0.04136
G1 X101.852 Y5.905 E0.00879
G1 X101.603 Y6.064 E0.00927
G1 X101.341 Y6.281 E0.01064
G1 X101.125 Y6.520 E0.01010
G1 X100.945 Y6.783 E0.01000
G1 X100.809 Y7.051 E0.00943
G1 F8640.000
G1 X100.787 Y5.787 E-0.29188
G1 X102.106 Y5.787 E-0.30462
G1 X101.852 Y5.905 E-0.06474
G1 X101.603 Y6.064 E-0.06824
G1 X101.501 Y6.148 E-0.03052
G1 E-0.04000 F2100.00000
G1 Z0.800 F10800.000
G1 X101.013 Y16.699
G1 Z0.200
G1 E0.80000 F2100.00000
G1 F1200.000
G1 X103.095 Y16.699 E0.06526
G1 X103.884 Y19.138 E0.08038
G1 X103.884 Y16.699 E0.07647
G1 X106.023 Y16.699 E0.06706
G1 X106.023 Y25.024 E0.26103
G1 X103.855 Y25.024 E0.06799
G1 X103.152 Y22.662 E0.07726
G1 X103.152 Y25.024 E0.07405
G1 X101.013 Y25.024 E0.06706
G1 X101.013 Y16.759 E0.25915
G1 X100.980 Y16.300 F10800.000
G1 F8640.000
G1 X103.095 Y16.699 E-0.48082
G1 X103.467 Y17.849 E-0.27918
G1 E-0.04000 F2100.00000
G1 Z0.800 F10800.000
G1 X106.555 Y17.946
G1 Z0.200
G1 E0.80000 F2100.00000
G1 F1200.000
G1 X106.815 Y17.470 E0.01701
G1 X107.104 Y17.152 E0.01345
G1 X107.331 Y16.973 E0.00906
G1 X107.701 Y16.770 E0.01324
G1 X108.011 Y16.664 E0.01028
G1 X108.323 Y16.585 E0.01008
G1 X108.678 Y16.545 E0.01121
G1 X108.958 Y16.532 E0.00878
G1 X109.270 Y16.547 E0.00981
G1 X109.727 Y16.616 E0.01447
G1 X110.177 Y16.755 E0.01476
G1 X110.435 Y16.884 E0.00905
G1 X110.676 Y17.038 E0.00896
G1 X110.887 Y17.230 E0.00897
G1 X111.082 Y17.450 E0.00921
G1 X111.350 Y17.921 E0.01699
G1 X111.485 Y18.442 E0.01688
G1 X111.517 Y18.892 E0.01414
G1 X111.545 Y19.754 E0.02705
G1 X111.538 Y22.388 E0.08259
G1 X111.488 Y23.256 E0.02725
G1 X111.360 Y23.777 E0.01683
G1 X111.100 Y24.253 E0.01701
G1 X110.812 Y24.571 E0.01345
G1 X110.585 Y24.749 E0.00906
G1 X110.215 Y24.953 E0.01324
G1 X109.905 Y25.059 E0.01028
G1 X109.594 Y25.138 E0.01005
G1 X108.958 Y25.190 E0.02001
G1 X108.645 Y25.175 E0.00981
G1 X108.189 Y25.107 E0.01447
G1 X107.739 Y24.968 E0.01476
G1 X107.481 Y24.838 E0.00905
G1 X107.240 Y24.685 E0.00896
G1 X107.028 Y24.492 E0.00897
G1 X106.833 Y24.273 E0.00921
G1 X106.565 Y23.802 E0.01699
G1 X106.430 Y23.281 E0.01688
G1 X106.398 Y22.831 E0.01414
G1 X106.370 Y21.969 E0.02705
G1 X106.378 Y19.334 E0.08259
G1 X106.427 Y18.467 E0.02725
G1 X106.541 Y18.004 E0.01494
G1 X106.306 Y17.632 F10800.000
G1 F8640.000
G1 X106.815 Y17.470 E-0.13867
G1 X107.104 Y17.152 E-0.09908
G1 X107.331 Y16.973 E-0.06673
G1 X107.701 Y16.770 E-0.09749
G1 X108.011 Y16.664 E-0.07570
G1 X108.323 Y16.585 E-0.07424
G1 X108.678 Y16.545 E-0.08258
G1 X108.958 Y16.532 E-0.06469
G1 X109.221 Y16.545 E-0.06082
G1 E-0.04000 F2100.00000
G1 Z0.800 F10800.000
G1 X111.892 Y16.699
G1 Z0.200
G1 E0.80000 F2100.00000
G1 F1200.000
G1 X114.368 Y16.699 E0.07762
G1 X114.368 Y25.024 E0.26103
G1 X111.892 Y25.024 E0.07762
G1 X111.892 Y16.759 E0.25915
G1 X111.854 Y16.301 F10800.000
G1 F8640.000
G1 X114.368 Y16.699 E-0.57181
G1 X114.368 Y17.514 E-0.18819
G1 E-0.04000 F2100.00000
G1 Z0.800 F10800.000
G1 X119.550 Y19.511
G1 Z0.200
G1 E0.80000 F2100.00000
G1 F1200.000
G1 X117.417 Y19.511 E0.06688
G1 X118.247 Y20.029 E0.03070
G1 X118.699 Y20.370 E0.01773
G1 X118.913 Y20.564 E0.00907
G1 X119.330 Y20.988 E0.01864
G1 X119.526 Y21.437 E0.01534
G1 X119.657 Y21.880 E0.01450
G1 X119.709 Y22.338 E0.01446
G1 X119.720 Y22.793 E0.01427
G1 X119.704 Y23.289 E0.01553
G1 X119.654 Y23.627 E0.01074
G1 X119.502 Y24.134 E0.01657
G1 X119.237 Y24.488 E0.01388
G1 X119.121 Y24.599 E0.00503
G1 X118.888 Y24.762 E0.00892
G1 X118.635 Y24.900 E0.00904
G1 X118.290 Y25.030 E0.01154
G1 X117.769 Y25.154 E0.01679
G1 X117.229 Y25.190 E0.01699
G1 X116.653 Y25.150 E0.01810
G1 X116.270 Y25.067 E0.01230
G1 X115.723 Y24.855 E0.01837
G1 X115.337 Y24.599 E0.01453
G1 X115.209 Y24.483 E0.00543
G1 X115.019 Y24.235 E0.00977
G1 X114.860 Y23.950 E0.01024
G1 X114.764 Y23.579 E0.01201
G1 X114.699 Y23.220 E0.01144
G1 X114.672 Y22.857 E0.01144
G1 X114.664 Y21.772 E0.03401
G1 X116.623 Y21.772 E0.06141
G1 X115.761 Y21.189 E0.03262
G1 X115.241 Y20.786 E0.02064
G1 X114.973 Y20.458 E0.01327
G1 X114.777 Y20.070 E0.01364
G1 X114.637 Y19.523 E0.01769
G1 X114.602 Y18.967 E0.01746
G1 X114.620 Y18.432 E0.01679
G1 X114.679 Y18.070 E0.01152
G1 X114.855 Y17.539 E0.01752
G1 X115.031 Y17.296 E0.00943
G1 X115.226 Y17.088 E0.00893
G1 X115.458 Y16.924 E0.00891
G1 X115.710 Y16.786 E0.00899
G1 X116.198 Y16.625 E0.01613
G1 X116.535 Y16.562 E0.01076
G1 X117.044 Y16.532 E0.01596
G1 X117.412 Y16.548 E0.01154
G1 X117.779 Y16.592 E0.01161
G1 X118.138 Y16.684 E0.01163
G1 X118.492 Y16.808 E0.01176
G1 X118.744 Y16.940 E0.00889
G1 X118.974 Y17.098 E0.00877
G1 X119.089 Y17.209 E0.00499
G1 X119.347 Y17.559 E0.01365
G1 X119.453 Y17.931 E0.01213
G1 X119.520 Y18.284 E0.01125
G1 X119.545 Y18.640 E0.01121
G1 X119.549 Y19.451 E0.02543
G1 X119.553 Y19.911 F10800.000
G1 F8640.000
G1 X117.417 Y19.511 E-0.49266
G1 X118.247 Y20.029 E-0.22610
G1 X118.390 Y20.137 E-0.04124
G1 E-0.04000 F2100.00000
G1 Z0.800 F10800.000
G1 X119.944 Y16.699
G1 Z0.200
G1 E0.80000 F2100.00000
G1 F1200.000
G1 X123.792 Y16.699 E0.12064
G1 X123.792 Y18.701 E0.06277
G1 X122.420 Y18.701 E0.04302
G1 X122.420 Y19.780 E0.03383
G1 X123.704 Y19.780 E0.04026
G1 X123.704 Y21.704 E0.06032
G1 X122.420 Y21.704 E0.04026
G1 X122.420 Y23.022 E0.04133
G1 X123.928 Y23.022 E0.04731
G1 X123.928 Y25.024 E0.06277
G1 X119.944 Y25.024 E0.12493
G1 X119.944 Y16.759 E0.25915
G1 X119.885 Y16.303 F10800.000
G1 F8640.000
G1 X123.235 Y16.707 E-0.76000
G1 E-0.04000 F2100.00000
G1 Z0.800 F10800.000
G1 X119.567 Y19.888
G1 Z0.200
G1 E0.80000 F2100.00000
G1 F1200.000
G1 X119.567 Y20.692 E0.02518
G1 X119.175 Y20.292 E0.01754
G1 X118.940 Y20.079 E0.00995
G1 X118.687 Y19.888 E0.00993
G1 X119.507 Y19.888 E0.02571
G1 F8640.000
G1 X119.567 Y20.692 E-0.18597
G1 X119.175 Y20.292 E-0.12920
G1 X118.940 Y20.079 E-0.07327
G1 X118.687 Y19.888 E-0.07315
G1 X119.507 Y19.888 E-0.18935
G1 E-0.14907 F2100.00000
G1 Z0.800 F10800.000
G1 X115.411 Y21.395
G1 Z0.200
G1 E0.80000 F2100.00000
G1 F1200.000
G1 X114.745 Y21.395 E0.02087
G1 X114.745 Y20.776 E0.01942
G1 X114.976 Y21.058 E0.01143
G1 X115.363 Y21.358 E0.01536
G1 F8640.000
G1 X114.745 Y21.395 E-0.14299
G1 X114.745 Y20.776 E-0.14300
G1 X114.976 Y21.058 E-0.08420
G1 X115.363 Y21.358 E-0.11313
G1 E-0.31669 F2100.00000
G1 Z0.800 F10800.000
G1 X131.034 Y35.034
G1 Z0.200
G1 E0.80000 F2100.00000
G1 F1200.000
