; generated by PrusaSlicer 2.2.0+win64 on 2020-09-19 at 23:47:54 UTC

; 

; external perimeters extrusion width = 0.45mm
; perimeters extrusion width = 0.45mm
; infill extrusion width = 0.45mm
; solid infill extrusion width = 0.45mm
; top infill extrusion width = 0.40mm
; first layer extrusion width = 0.42mm

; external perimeters extrusion width = 0.45mm
; perimeters extrusion width = 0.45mm
; infill extrusion width = 0.45mm
; solid infill extrusion width = 0.45mm
; top infill extrusion width = 0.40mm
; first layer extrusion width = 0.42mm

; external perimeters extrusion width = 0.45mm
; perimeters extrusion width = 0.45mm
; infill extrusion width = 0.45mm
; solid infill extrusion width = 0.45mm
; top infill extrusion width = 0.40mm
; first layer extrusion width = 0.42mm

; external perimeters extrusion width = 0.45mm
; perimeters extrusion width = 0.45mm
; infill extrusion width = 0.45mm
; solid infill extrusion width = 0.45mm
; top infill extrusion width = 0.40mm
; first layer extrusion width = 0.42mm

; external perimeters extrusion width = 0.45mm
; perimeters extrusion width = 0.45mm
; infill extrusion width = 0.45mm
; solid infill extrusion width = 0.45mm
; top infill extrusion width = 0.40mm
; first layer extrusion width = 0.42mm

; external perimeters extrusion width = 0.45mm
; perimeters extrusion width = 0.45mm
; infill extrusion width = 0.45mm
; solid infill extrusion width = 0.45mm
; top infill extrusion width = 0.40mm
; first layer extrusion width = 0.42mm

M73 P0 R142
M73 Q0 S144
M201 X1000 Y1000 Z200 E8000 ; sets maximum accelerations, mm/sec^2
M203 X200 Y200 Z12 E120 ; sets maximum feedrates, mm/sec
M204 P1250 R1250 T1250 ; sets acceleration (P, T) and retract acceleration (R), mm/sec^2
M205 X8.00 Y8.00 Z0.40 E4.50 ; sets the jerk limits, mm/sec
M205 S0 T0 ; sets the minimum extruding and travel feed rate, mm/sec
M107
M862.3 P "MK3SMMU2S" ; printer model check
M862.1 P0.4 ; nozzle diameter check
M115 U3.9.0 ; tell printer latest fw version
G90 ; use absolute coordinates
M83 ; extruder relative mode
M104 S215 ; set extruder temp
M140 S60 ; set bed temp
M190 S60 ; wait for bed temp
M109 S215 ; wait for extruder temp
G28 W ; home all without mesh bed level
G80 ; mesh bed leveling

; Send the filament type to the MMU2.0 unit.
; E stands for extruder number, F stands for filament type (0: default; 1:flex; 2: PVA)
M403 E0 F0
M403 E1 F0
M403 E2 F0
M403 E3 F0
M403 E4 F0


;go outside print area
G1 Y-3.0 F1000.0
G1 Z0.4 F1000.0
; select extruder
T1
; initial load
G1 X55.0 E29.0 F1073.0
M73 Q0 S144
M73 P0 R141
G1 X5.0 E29.0 F1800.0
G1 X55.0 E8.0 F2000.0
G1 Z0.3 F1000.0
G92 E0.0
G1 X240.0 E25.0 F2200.0
G1 Y-2.0 F1000.0
G1 X55.0 E25 F1400.0
G1 Z0.20 F1000.0
G1 X5.0 E4.0 F1000.0
G92 E0.0


M221 S95
G92 E0.0

; Don't change E values below. Excessive value can damage the printer.

M907 E538 ; set extruder motor current
G21 ; set units to millimeters
G90 ; use absolute coordinates
M83 ; use relative distances for extrusion
T1
M900 K0.06 ; Filament gcode LA 1.5
M900 K30 ; Filament gcode LA 1.0
G1 Z0.200 F10800.000
;BEFORE_LAYER_CHANGE
G92 E0.0
;0.2


G1 E-0.80000 F2100.00000
G1 Z0.800 F10800.000
G1 Z0.200
;AFTER_LAYER_CHANGE
;0.2
G1 E-2.20000 F2100.00000
G1 Z0.800 F10800.000
G1 X233.000 Y125.000
G1 Z0.200
G1 E3.00000 F2100.00000
;-------------------------------------
; CP WIPE TOWER FIRST LAYER BRIM START
G1  X233.000 Y139.060  E0.8016 F2400
G1  X230.457 Y139.517   F7000
G1  Y124.543  E0.6260 F2100
G1  X169.543  E2.5466
G1  Y139.517  E0.6260
G1  X230.457  E2.5466
G1  X230.914 Y139.974   F7000
G1  Y124.086  E0.6642 F2100
G1  X169.086  E2.5849
G1  Y139.974  E0.6642
G1  X230.914  E2.5849
G1  X231.371 Y140.431   F7000
G1  Y123.629  E0.7025 F2100
G1  X168.629  E2.6231
G1  Y140.431  E0.7025
G1  X231.371  E2.6231
G1  X231.828 Y140.888   F7000
G1  Y123.172  E0.7407 F2100
G1  X168.172  E2.6613
G1  Y140.888  E0.7407
G1  X231.828  E2.6613
G1  X230.000 Y139.060   F7000
G1  X170.000 
G1  X230.000 
; CP WIPE TOWER FIRST LAYER BRIM END
;-----------------------------------

G1 F8640.000
G1 X226.709 Y139.060 E-0.76000
G1 E-0.04000 F2100.00000
G1 Z0.800 F10800.000
G1 X234.053 Y142.407
G1 Z0.200
G1 E0.80000 F2100.00000
M204 S1000
G1 F1200.000
G1 X233.524 Y142.987 E0.02461
G1 X151.460 Y206.876 E3.26090
G1 X151.041 Y207.137 E0.01550
G1 X150.536 Y207.316 E0.01680
G1 X150.007 Y207.377 E0.01668
G1 X99.996 Y207.377 E1.56805
G1 X99.430 Y207.308 E0.01787
G1 X98.713 Y206.999 E0.02449
G1 X98.135 Y206.474 E0.02449
G1 X97.758 Y205.789 E0.02449
G1 X97.623 Y205.020 E0.02449
G1 X97.623 Y5.000 E6.27149
M73 Q0 S143
M73 P0 R140
G1 X97.692 Y4.430 E0.01799
G1 X97.993 Y3.726 E0.02402
G1 X98.503 Y3.154 E0.02402
G1 X99.168 Y2.773 E0.02402
G1 X99.919 Y2.624 E0.02402
G1 X150.004 Y2.623 E1.57038
G1 X150.566 Y2.691 E0.01775
G1 X151.096 Y2.891 E0.01775
G1 X151.564 Y3.210 E0.01775
G1 X151.943 Y3.630 E0.01775
G1 X234.089 Y121.710 E4.51011
G1 X234.342 Y122.288 E0.01977
G1 X234.434 Y122.911 E0.01977
G1 X234.434 Y141.124 E0.57106
G1 X234.365 Y141.686 E0.01775
G1 X234.077 Y142.352 E0.02273
G1 F8640.000
G1 X233.524 Y142.987 E-0.19438
G1 X231.592 Y144.492 E-0.56562
G1 E-0.04000 F2100.00000
G1 Z0.800 F10800.000
G1 X142.891 Y93.497
G1 Z0.200
G1 E0.80000 F2100.00000
G1 F1200.000
G1 X142.855 Y93.529 E0.00148
G1 X142.785 Y93.532 E0.00220
G1 X142.748 Y93.389 E0.00463
G1 X142.743 Y92.567 E0.02576
G1 X142.828 Y92.637 E0.00345
G1 X142.925 Y92.897 E0.00868
G1 X142.940 Y93.051 E0.00484
G1 X142.927 Y93.394 E0.01076
G1 X142.911 Y93.441 E0.00157
G1 X142.844 Y93.494 F10800.000
G1 F8640.000
G1 X142.855 Y93.529 E-0.02398
G1 X142.785 Y93.532 E-0.01618
G1 X142.748 Y93.389 E-0.03409
G1 X142.743 Y92.567 E-0.18967
G1 X142.828 Y92.637 E-0.02537
G1 X142.925 Y92.897 E-0.06394
G1 X142.940 Y93.051 E-0.03565
G1 X142.927 Y93.394 E-0.07923
G1 X142.911 Y93.441 E-0.01156
G1 E-0.32033 F2100.00000
G1 Z0.800 F10800.000
G1 X142.839 Y90.232
G1 Z0.200
G1 E0.80000 F2100.00000
G1 F1200.000
G1 X142.767 Y90.156 E0.00329
G1 X142.718 Y89.994 E0.00531
G1 X142.705 Y89.788 E0.00646
G1 X142.715 Y89.641 E0.00463
G1 X142.751 Y89.540 E0.00335
G1 X142.802 Y89.511 E0.00183
G1 X142.833 Y89.621 E0.00357
G1 X142.838 Y90.172 E0.01729
G1 X142.786 Y90.141 F10800.000
G1 F8640.000
G1 X142.767 Y90.156 E-0.01694
G1 X142.718 Y89.994 E-0.03914
G1 X142.705 Y89.788 E-0.04754
G1 X142.715 Y89.641 E-0.03408
G1 X142.751 Y89.540 E-0.02464
G1 X142.802 Y89.511 E-0.01351
G1 X142.833 Y89.621 E-0.02633
G1 X142.838 Y90.172 E-0.12734
G1 E-0.47048 F2100.00000
G1 Z0.800 F10800.000
G1 X141.091 Y91.832
G1 Z0.200
G1 E0.80000 F2100.00000
G1 F1200.000
G1 X140.982 Y91.832 E0.00343
G1 X140.965 Y91.717 E0.00367
G1 X141.044 Y91.796 E0.00350
G1 F8640.000
G1 X140.982 Y91.832 E-0.01664
G1 X140.965 Y91.717 E-0.02699
G1 X141.044 Y91.796 E-0.02579
G1 E-0.73057 F2100.00000
G1 Z0.800 F10800.000
G1 X139.954 Y21.058
G1 Z0.200
G1 E0.80000 F2100.00000
G1 F1200.000
G1 X137.561 Y21.058 E0.07504
G1 X137.561 Y20.938 E0.00376
G1 X139.970 Y20.938 E0.07554
G1 X139.962 Y20.998 E0.00191
G1 F8640.000
G1 X137.561 Y21.058 E-0.55460
G1 X137.561 Y20.938 E-0.02766
G1 X138.331 Y20.938 E-0.17774
G1 E-0.04000 F2100.00000
G1 Z0.800 F10800.000
G1 X137.612 Y118.213
G1 Z0.200
G1 E0.80000 F2100.00000
G1 F1200.000
G1 X138.060 Y118.240 E0.01407
G1 X138.505 Y118.300 E0.01407
G1 X138.944 Y118.395 E0.01407
G1 X139.374 Y118.524 E0.01407
G1 X139.792 Y118.686 E0.01407
G1 X140.198 Y118.880 E0.01411
G1 X140.604 Y119.116 E0.01472
G1 X140.956 Y119.358 E0.01339
G1 X141.306 Y119.639 E0.01407
G1 X141.632 Y119.947 E0.01407
G1 X141.934 Y120.281 E0.01411
G1 X142.221 Y120.653 E0.01472
G1 X142.455 Y121.010 E0.01339
G1 X142.672 Y121.402 E0.01407
G1 X142.858 Y121.811 E0.01407
G1 X143.011 Y122.233 E0.01407
G1 X143.132 Y122.665 E0.01407
G1 X143.218 Y123.106 E0.01407
G1 X143.270 Y123.552 E0.01407
G1 X143.288 Y124.000 E0.01407
G1 X143.270 Y124.448 E0.01407
G1 X143.218 Y124.894 E0.01407
G1 X143.132 Y125.335 E0.01407
G1 X143.011 Y125.767 E0.01407
G1 X142.857 Y126.190 E0.01411
G1 X142.662 Y126.617 E0.01472
G1 X142.455 Y126.990 E0.01339
G1 X142.209 Y127.365 E0.01407
G1 X141.934 Y127.720 E0.01407
G1 X141.632 Y128.053 E0.01407
G1 X141.306 Y128.361 E0.01407
G1 X140.956 Y128.642 E0.01407
G1 X140.586 Y128.896 E0.01407
G1 X140.197 Y129.121 E0.01407
G1 X139.792 Y129.314 E0.01407
G1 X139.374 Y129.476 E0.01407
G1 X138.944 Y129.605 E0.01407
G1 X138.505 Y129.700 E0.01407
G1 X138.060 Y129.760 E0.01407
G1 X137.611 Y129.787 E0.01411
G1 X137.142 Y129.776 E0.01472
G1 X136.717 Y129.734 E0.01339
G1 X136.275 Y129.656 E0.01407
G1 X135.840 Y129.545 E0.01407
G1 X135.415 Y129.399 E0.01407
G1 X135.003 Y129.221 E0.01407
G1 X134.606 Y129.012 E0.01407
G1 X134.226 Y128.773 E0.01407
G1 X133.866 Y128.505 E0.01407
G1 X133.528 Y128.210 E0.01407
G1 X133.214 Y127.889 E0.01407
G1 X132.925 Y127.546 E0.01407
G1 X132.664 Y127.180 E0.01407
G1 X132.433 Y126.796 E0.01407
G1 X132.231 Y126.394 E0.01411
G1 X132.055 Y125.959 E0.01472
G1 X131.924 Y125.552 E0.01339
G1 X131.821 Y125.115 E0.01407
G1 X131.751 Y124.672 E0.01407
G1 X131.717 Y124.224 E0.01407
G1 X131.717 Y123.774 E0.01411
G1 X131.755 Y123.307 E0.01472
G1 X131.821 Y122.885 E0.01339
G1 X131.924 Y122.448 E0.01407
G1 X132.061 Y122.021 E0.01407
G1 X132.231 Y121.605 E0.01407
G1 X132.433 Y121.204 E0.01407
G1 X132.664 Y120.820 E0.01407
G1 X132.925 Y120.454 E0.01407
G1 X133.215 Y120.110 E0.01411
G1 X133.545 Y119.776 E0.01472
G1 X133.866 Y119.495 E0.01339
G1 X134.226 Y119.227 E0.01407
G1 X134.606 Y118.988 E0.01407
G1 X135.004 Y118.778 E0.01411
G1 X135.436 Y118.594 E0.01472
G1 X135.840 Y118.455 E0.01339
G1 X136.275 Y118.344 E0.01407
G1 X136.718 Y118.265 E0.01411
G1 X137.185 Y118.222 E0.01472
G1 X137.552 Y118.215 E0.01151
G1 X137.560 Y118.592 F10800.000
G1 F1200.000
G1 X138.024 Y118.615 E0.01457
G1 X138.439 Y118.672 E0.01316
G1 X138.850 Y118.761 E0.01316
G1 X139.251 Y118.881 E0.01316
G1 X139.643 Y119.032 E0.01316
G1 X140.022 Y119.213 E0.01317
G1 X140.402 Y119.435 E0.01380
G1 X140.731 Y119.660 E0.01249
G1 X141.057 Y119.924 E0.01316
G1 X141.363 Y120.212 E0.01316
G1 X141.645 Y120.523 E0.01317
G1 X141.913 Y120.872 E0.01380
G1 X142.132 Y121.205 E0.01249
G1 X142.335 Y121.572 E0.01316
G1 X142.508 Y121.954 E0.01316
G1 X142.652 Y122.348 E0.01316
G1 X142.764 Y122.752 E0.01316
G1 X142.845 Y123.164 E0.01316
G1 X142.894 Y123.581 E0.01316
G1 X142.910 Y124.000 E0.01316
G1 X142.894 Y124.419 E0.01316
G1 X142.845 Y124.836 E0.01316
G1 X142.764 Y125.248 E0.01316
G1 X142.652 Y125.652 E0.01316
G1 X142.508 Y126.047 E0.01317
G1 X142.325 Y126.447 E0.01380
G1 X142.132 Y126.795 E0.01249
G1 X141.902 Y127.146 E0.01316
G1 X141.645 Y127.478 E0.01316
G1 X141.363 Y127.788 E0.01316
G1 X141.057 Y128.076 E0.01316
G1 X140.731 Y128.340 E0.01316
G1 X140.385 Y128.577 E0.01316
G1 X140.021 Y128.787 E0.01316
G1 X139.643 Y128.968 E0.01316
G1 X139.252 Y129.119 E0.01316
G1 X138.850 Y129.239 E0.01316
G1 X138.439 Y129.328 E0.01316
G1 X138.024 Y129.385 E0.01316
G1 X137.605 Y129.409 E0.01317
G1 X137.164 Y129.399 E0.01380
G1 X136.768 Y129.361 E0.01249
G1 X136.355 Y129.288 E0.01316
G1 X135.948 Y129.183 E0.01316
G1 X135.551 Y129.047 E0.01316
G1 X135.166 Y128.881 E0.01316
G1 X134.795 Y128.685 E0.01316
G1 X134.440 Y128.462 E0.01316
G1 X134.103 Y128.211 E0.01316
G1 X133.787 Y127.935 E0.01316
G1 X133.493 Y127.636 E0.01316
G1 X133.224 Y127.314 E0.01316
G1 X132.980 Y126.973 E0.01316
G1 X132.763 Y126.614 E0.01316
G1 X132.574 Y126.238 E0.01317
G1 X132.410 Y125.830 E0.01380
G1 X132.288 Y125.451 E0.01249
G1 X132.191 Y125.043 E0.01316
G1 X132.126 Y124.628 E0.01316
G1 X132.094 Y124.210 E0.01316
G1 X132.094 Y123.790 E0.01317
G1 X132.130 Y123.351 E0.01380
G1 X132.191 Y122.957 E0.01249
G1 X132.288 Y122.549 E0.01316
G1 X132.416 Y122.150 E0.01316
G1 X132.575 Y121.761 E0.01316
G1 X132.763 Y121.386 E0.01316
G1 X132.980 Y121.027 E0.01316
G1 X133.224 Y120.686 E0.01316
G1 X133.494 Y120.364 E0.01317
G1 X133.803 Y120.051 E0.01380
G1 X134.103 Y119.789 E0.01249
G1 X134.440 Y119.538 E0.01316
G1 X134.795 Y119.315 E0.01316
G1 X135.166 Y119.119 E0.01317
G1 X135.571 Y118.946 E0.01380
G1 X135.948 Y118.817 E0.01249
G1 X136.355 Y118.712 E0.01316
G1 X136.768 Y118.639 E0.01317
G1 X137.206 Y118.598 E0.01380
G1 X137.500 Y118.593 E0.00919
G1 X137.764 Y118.248 F10800.000
G1 F8640.000
G1 X138.024 Y118.615 E-0.12115
G1 X138.439 Y118.672 E-0.09688
G1 X138.850 Y118.761 E-0.09688
G1 X139.251 Y118.881 E-0.09688
G1 X139.643 Y119.032 E-0.09688
G1 X140.022 Y119.213 E-0.09697
G1 X140.402 Y119.435 E-0.10164
G1 X140.590 Y119.564 E-0.05271
G1 E-0.04000 F2100.00000
G1 Z0.800 F10800.000
G1 X136.736 Y134.946
G1 Z0.200
G1 E0.80000 F2100.00000
G1 F1200.000
G1 X142.373 Y134.946 E0.17674
G1 X141.381 Y142.444 E0.23716
G1 X137.863 Y142.444 E0.11030
G1 X137.650 Y141.027 E0.04495
G1 X137.626 Y141.153 E0.00404
G1 X137.461 Y141.478 E0.01144
G1 X137.275 Y141.747 E0.01022
G1 X137.130 Y141.896 E0.00652
G1 X136.760 Y142.185 E0.01472
G1 X136.247 Y142.425 E0.01776
G1 X136.026 Y142.494 E0.00727
G1 X135.656 Y142.555 E0.01176
G1 X135.286 Y142.578 E0.01162
G1 X134.919 Y142.561 E0.01152
G1 X134.544 Y142.511 E0.01187
G1 X134.178 Y142.401 E0.01198
G1 X133.808 Y142.247 E0.01257
G1 X133.521 Y142.049 E0.01094
G1 X133.273 Y141.823 E0.01052
G1 X133.138 Y141.644 E0.00704
G1 X132.907 Y141.195 E0.01581
G1 X132.757 Y140.378 E0.02606
G1 X132.730 Y139.621 E0.02375
G1 X132.737 Y137.227 E0.07507
G1 X132.783 Y136.635 E0.01861
G1 X132.917 Y136.160 E0.01546
G1 X133.165 Y135.733 E0.01551
G1 X133.363 Y135.512 E0.00930
G1 X133.572 Y135.321 E0.00887
G1 X133.808 Y135.169 E0.00881
G1 X134.055 Y135.041 E0.00870
G1 X134.347 Y134.939 E0.00972
G1 X134.644 Y134.863 E0.00960
G1 X134.991 Y134.823 E0.01096
G1 X135.593 Y134.829 E0.01887
G1 X135.986 Y134.886 E0.01247
G1 X136.357 Y135.005 E0.01221
G1 X136.775 Y135.203 E0.01450
G1 X136.745 Y135.005 E0.00628
G1 F8640.000
G1 X140.036 Y134.971 E-0.76000
G1 E-0.04000 F2100.00000
G1 Z0.800 F10800.000
G1 X137.414 Y138.497
G1 Z0.200
G1 E0.80000 F2100.00000
G1 F1200.000
G1 X135.349 Y138.497 E0.06476
G1 X135.345 Y136.907 E0.04985
G1 X135.310 Y136.690 E0.00688
G1 X135.228 Y136.693 E0.00257
G1 X135.171 Y137.095 E0.01272
G1 X135.171 Y140.321 E0.10115
G1 X135.213 Y140.693 E0.01176
G1 X135.303 Y140.691 E0.00284
G1 X135.344 Y140.433 E0.00817
G1 X135.350 Y139.112 E0.04143
G1 X137.414 Y139.112 E0.06472
G1 X137.411 Y139.928 E0.02559
G1 X137.372 Y140.472 E0.01708
G1 X137.265 Y141.030 E0.01782
G1 X137.136 Y141.285 E0.00897
G1 X136.983 Y141.506 E0.00844
G1 X136.878 Y141.614 E0.00472
G1 X136.562 Y141.861 E0.01257
G1 X136.110 Y142.072 E0.01563
G1 X135.939 Y142.126 E0.00565
G1 X135.614 Y142.180 E0.01033
G1 X135.283 Y142.200 E0.01038
G1 X134.953 Y142.185 E0.01036
G1 X134.624 Y142.141 E0.01041
G1 X134.305 Y142.045 E0.01044
G1 X133.989 Y141.914 E0.01072
G1 X133.756 Y141.753 E0.00889
G1 X133.553 Y141.568 E0.00861
G1 X133.458 Y141.442 E0.00492
G1 X133.268 Y141.072 E0.01306
G1 X133.133 Y140.336 E0.02345
G1 X133.107 Y139.615 E0.02265
G1 X133.114 Y137.242 E0.07440
G1 X133.156 Y136.701 E0.01700
G1 X133.267 Y136.309 E0.01278
G1 X133.472 Y135.956 E0.01281
G1 X133.803 Y135.621 E0.01476
G1 X134.204 Y135.388 E0.01453
G1 X134.713 Y135.235 E0.01666
G1 X135.011 Y135.200 E0.00940
G1 X135.564 Y135.206 E0.01734
G1 X135.901 Y135.255 E0.01069
G1 X136.223 Y135.358 E0.01059
G1 X136.537 Y135.497 E0.01079
G1 X136.762 Y135.654 E0.00860
G1 X136.961 Y135.832 E0.00836
G1 X137.056 Y135.951 E0.00477
G1 X137.255 Y136.308 E0.01284
G1 X137.388 Y137.001 E0.02211
G1 X137.410 Y137.349 E0.01093
G1 X137.414 Y138.437 E0.03412
G1 X137.416 Y138.897 F10800.000
G1 F8640.000
G1 X135.349 Y138.497 E-0.47709
G1 X135.346 Y137.272 E-0.28291
G1 E-0.04000 F2100.00000
G1 Z0.800 F10800.000
G1 X137.174 Y135.323
G1 Z0.200
G1 E0.80000 F2100.00000
G1 F1200.000
G1 X139.341 Y135.323 E0.06794
G1 X139.575 Y137.485 E0.06819
G1 X139.778 Y135.323 E0.06809
G1 X141.943 Y135.323 E0.06789
G1 X141.050 Y142.067 E0.21330
G1 X138.188 Y142.067 E0.08976
G1 X137.183 Y135.382 E0.21195
G1 X137.105 Y134.929 F10800.000
G1 F8640.000
G1 X139.341 Y135.323 E-0.49844
G1 X139.463 Y136.449 E-0.26156
G1 E-0.04000 F2100.00000
G1 Z0.800 F10800.000
G1 X137.374 Y145.218
G1 Z0.200
G1 E0.80000 F2100.00000
G1 F1200.000
