; generated by PrusaSlicer 2.2.0+win64 on 2020-09-24 at 04:17:44 UTC

; 

; external perimeters extrusion width = 0.45mm
; perimeters extrusion width = 0.45mm
; infill extrusion width = 0.45mm
; solid infill extrusion width = 0.45mm
; top infill extrusion width = 0.40mm
; first layer extrusion width = 0.42mm

; external perimeters extrusion width = 0.45mm
; perimeters extrusion width = 0.45mm
; infill extrusion width = 0.45mm
; solid infill extrusion width = 0.45mm
; top infill extrusion width = 0.40mm
; first layer extrusion width = 0.42mm

; external perimeters extrusion width = 0.45mm
; perimeters extrusion width = 0.45mm
; infill extrusion width = 0.45mm
; solid infill extrusion width = 0.45mm
; top infill extrusion width = 0.40mm
; first layer extrusion width = 0.42mm

; external perimeters extrusion width = 0.45mm
; perimeters extrusion width = 0.45mm
; infill extrusion width = 0.45mm
; solid infill extrusion width = 0.45mm
; top infill extrusion width = 0.40mm
; first layer extrusion width = 0.42mm

; external perimeters extrusion width = 0.45mm
; perimeters extrusion width = 0.45mm
; infill extrusion width = 0.45mm
; solid infill extrusion width = 0.45mm
; top infill extrusion width = 0.40mm
; first layer extrusion width = 0.42mm

; external perimeters extrusion width = 0.45mm
; perimeters extrusion width = 0.45mm
; infill extrusion width = 0.45mm
; solid infill extrusion width = 0.45mm
; top infill extrusion width = 0.40mm
; first layer extrusion width = 0.42mm

M73 P0 R185
M73 Q0 S189
M201 X1000 Y1000 Z200 E8000 ; sets maximum accelerations, mm/sec^2
M203 X200 Y200 Z12 E120 ; sets maximum feedrates, mm/sec
M204 P1250 R1250 T1250 ; sets acceleration (P, T) and retract acceleration (R), mm/sec^2
M205 X8.00 Y8.00 Z0.40 E4.50 ; sets the jerk limits, mm/sec
M205 S0 T0 ; sets the minimum extruding and travel feed rate, mm/sec
M107
M862.3 P "MK3SMMU2S" ; printer model check
M862.1 P0.4 ; nozzle diameter check
M115 U3.9.0 ; tell printer latest fw version
G90 ; use absolute coordinates
M83 ; extruder relative mode
M104 S215 ; set extruder temp
M140 S60 ; set bed temp
M190 S60 ; wait for bed temp
M109 S215 ; wait for extruder temp
G28 W ; home all without mesh bed level
G80 ; mesh bed leveling

; Send the filament type to the MMU2.0 unit.
; E stands for extruder number, F stands for filament type (0: default; 1:flex; 2: PVA)
M403 E0 F0
M403 E1 F0
M403 E2 F0
M403 E3 F0
M403 E4 F0


;go outside print area
G1 Y-3.0 F1000.0
G1 Z0.4 F1000.0
; select extruder
T1
; initial load
G1 X55.0 E29.0 F1073.0
M73 Q0 S189
M73 P0 R185
G1 X5.0 E29.0 F1800.0
G1 X55.0 E8.0 F2000.0
G1 Z0.3 F1000.0
G92 E0.0
G1 X240.0 E25.0 F2200.0
G1 Y-2.0 F1000.0
G1 X55.0 E25 F1400.0
G1 Z0.20 F1000.0
G1 X5.0 E4.0 F1000.0
G92 E0.0


M221 S95
G92 E0.0

; Don't change E values below. Excessive value can damage the printer.

M907 E538 ; set extruder motor current
G21 ; set units to millimeters
G90 ; use absolute coordinates
M83 ; use relative distances for extrusion
T1
M900 K0.06 ; Filament gcode LA 1.5
M900 K30 ; Filament gcode LA 1.0
G1 Z0.200 F10800.000
;BEFORE_LAYER_CHANGE
G92 E0.0
;0.2


G1 E-0.80000 F2100.00000
G1 Z0.800 F10800.000
G1 Z0.200
;AFTER_LAYER_CHANGE
;0.2
G1 E-2.20000 F2100.00000
G1 Z0.800 F10800.000
G1 X233.000 Y125.000
G1 Z0.200
G1 E3.00000 F2100.00000
;-------------------------------------
; CP WIPE TOWER FIRST LAYER BRIM START
G1  X233.000 Y139.060  E0.8016 F2400
G1  X230.457 Y139.517   F7000
G1  Y124.543  E0.6260 F2100
G1  X169.543  E2.5466
G1  Y139.517  E0.6260
G1  X230.457  E2.5466
G1  X230.914 Y139.974   F7000
G1  Y124.086  E0.6642 F2100
G1  X169.086  E2.5849
G1  Y139.974  E0.6642
G1  X230.914  E2.5849
G1  X231.371 Y140.431   F7000
G1  Y123.629  E0.7025 F2100
G1  X168.629  E2.6231
G1  Y140.431  E0.7025
G1  X231.371  E2.6231
G1  X231.828 Y140.888   F7000
G1  Y123.172  E0.7407 F2100
G1  X168.172  E2.6613
G1  Y140.888  E0.7407
G1  X231.828  E2.6613
G1  X230.000 Y139.060   F7000
G1  X170.000 
G1  X230.000 
; CP WIPE TOWER FIRST LAYER BRIM END
;-----------------------------------

G1 F8640.000
G1 X226.709 Y139.060 E-0.76000
G1 E-0.04000 F2100.00000
G1 Z0.800 F10800.000
G1 X234.286 Y141.941
G1 Z0.200
G1 E0.80000 F2100.00000
M204 S1000
G1 F1200.000
G1 X234.032 Y142.439 E0.01752
G1 X233.667 Y142.866 E0.01763
G1 X164.105 Y206.753 E2.96135
G1 X163.461 Y207.174 E0.02414
G1 X162.994 Y207.325 E0.01538
G1 X162.502 Y207.377 E0.01550
G1 X87.496 Y207.377 E2.35177
G1 X86.676 Y207.230 E0.02614
G1 X86.051 Y206.885 E0.02237
G1 X85.555 Y206.367 E0.02249
G1 X85.236 Y205.725 E0.02249
G1 X85.123 Y205.016 E0.02249
G1 X85.123 Y5.000 E6.27137
M73 Q0 S188
M73 P0 R184
G1 X85.270 Y4.176 E0.02626
G1 X85.613 Y3.554 E0.02225
G1 X86.121 Y3.064 E0.02213
G1 X86.754 Y2.743 E0.02225
G1 X87.453 Y2.623 E0.02225
G1 X162.504 Y2.623 E2.35316
G1 X163.110 Y2.703 E0.01917
G1 X163.673 Y2.932 E0.01906
G1 X164.162 Y3.300 E0.01917
G1 X164.538 Y3.777 E0.01906
G1 X234.171 Y121.856 E4.29808
G1 X234.366 Y122.379 E0.01752
G1 X234.434 Y122.930 E0.01740
G1 X234.434 Y141.136 E0.57084
G1 X234.297 Y141.882 E0.02379
G1 F8640.000
G1 X234.032 Y142.439 E-0.14232
G1 X233.667 Y142.866 E-0.12986
G1 X232.111 Y144.295 E-0.48782
G1 E-0.04000 F2100.00000
G1 Z0.800 F10800.000
G1 X116.311 Y138.402
G1 Z0.200
G1 E0.80000 F2100.00000
G1 F1200.000
G1 X116.239 Y138.326 E0.00329
G1 X116.190 Y138.164 E0.00532
G1 X116.177 Y137.958 E0.00646
G1 X116.187 Y137.811 E0.00463
G1 X116.222 Y137.710 E0.00335
G1 X116.273 Y137.681 E0.00183
G1 X116.305 Y137.791 E0.00357
G1 X116.310 Y138.342 E0.01729
G1 X116.259 Y138.311 F10800.000
G1 F8640.000
G1 X116.239 Y138.326 E-0.01694
G1 X116.190 Y138.164 E-0.03914
G1 X116.177 Y137.958 E-0.04754
G1 X116.187 Y137.811 E-0.03408
G1 X116.222 Y137.710 E-0.02464
G1 X116.273 Y137.681 E-0.01351
G1 X116.305 Y137.791 E-0.02632
G1 X116.310 Y138.342 E-0.12734
G1 E-0.47048 F2100.00000
G1 Z0.800 F10800.000
G1 X116.218 Y140.738
G1 Z0.200
G1 E0.80000 F2100.00000
G1 F1200.000
G1 X116.303 Y140.807 E0.00344
G1 X116.357 Y140.922 E0.00398
G1 X116.399 Y141.067 E0.00473
G1 X116.415 Y141.220 E0.00484
G1 X116.403 Y141.563 E0.01076
G1 X116.366 Y141.667 E0.00345
G1 X116.294 Y141.705 E0.00257
G1 X116.261 Y141.702 E0.00104
G1 X116.224 Y141.559 E0.00463
G1 X116.218 Y140.798 E0.02387
G1 X116.280 Y140.828 F10800.000
G1 F8640.000
G1 X116.303 Y140.807 E-0.01972
G1 X116.357 Y140.922 E-0.02928
G1 X116.399 Y141.067 E-0.03484
G1 X116.415 Y141.220 E-0.03565
G1 X116.403 Y141.563 E-0.07923
G1 X116.366 Y141.667 E-0.02541
G1 X116.294 Y141.705 E-0.01893
G1 X116.261 Y141.702 E-0.00765
G1 X116.224 Y141.559 E-0.03409
G1 X116.218 Y140.798 E-0.17581
G1 E-0.33938 F2100.00000
G1 Z0.800 F10800.000
G1 X115.694 Y98.058
G1 Z0.200
G1 E0.80000 F2100.00000
G1 F1200.000
G1 X113.353 Y98.058 E0.07340
G1 X113.353 Y97.938 E0.00376
G1 X115.694 Y97.938 E0.07339
G1 X115.694 Y97.998 E0.00187
G1 F8640.000
G1 X113.353 Y98.058 E-0.54069
G1 X113.353 Y97.938 E-0.02766
G1 X114.183 Y97.938 E-0.19165
G1 E-0.04000 F2100.00000
G1 Z0.800 F10800.000
G1 X134.491 Y96.403
G1 Z0.200
G1 E0.80000 F2100.00000
G1 F1200.000
G1 X134.491 Y96.078 E0.01019
G1 X135.241 Y96.078 E0.02351
G1 X135.241 Y96.403 E0.01019
G1 X134.551 Y96.403 E0.02162
G1 F8640.000
G1 X134.491 Y96.078 E-0.07628
G1 X135.241 Y96.078 E-0.17310
G1 X135.241 Y96.403 E-0.07501
G1 X134.551 Y96.403 E-0.15925
G1 E-0.31636 F2100.00000
G1 Z0.800 F10800.000
G1 X118.072 Y139.030
G1 Z0.200
G1 E0.80000 F2100.00000
G1 F1200.000
G1 X118.072 Y139.225 E0.00610
G1 X117.866 Y139.031 E0.00887
G1 X118.012 Y139.031 E0.00458
G1 F8640.000
G1 X118.072 Y139.225 E-0.04698
G1 X117.866 Y139.031 E-0.06534
G1 X118.012 Y139.031 E-0.03370
G1 E-0.65398 F2100.00000
G1 Z0.800 F10800.000
G1 X113.854 Y138.411
G1 Z0.200
G1 E0.80000 F2100.00000
G1 F1200.000
G1 X113.472 Y138.411 E0.01199
G1 X113.472 Y138.386 E0.00079
G1 X113.818 Y138.386 E0.01084
G1 F8640.000
G1 X113.472 Y138.411 E-0.08007
G1 X113.472 Y138.386 E-0.00579
G1 X113.818 Y138.386 E-0.07986
G1 E-0.63428 F2100.00000
G1 Z0.800 F10800.000
G1 X114.501 Y139.954
G1 Z0.200
G1 E0.80000 F2100.00000
G1 F1200.000
G1 X114.565 Y140.004 E0.00257
G1 X114.510 Y140.004 E0.00172
G1 X113.895 Y140.788 F10800.000
G1 F1200.000
G1 X113.897 Y141.005 E0.00679
G1 X113.474 Y141.005 E0.01325
G1 X113.474 Y140.789 E0.00679
G1 X113.835 Y140.788 E0.01132
G1 F8640.000
G1 X113.897 Y141.005 E-0.05197
G1 X113.474 Y141.005 E-0.09760
G1 X113.474 Y140.789 E-0.04998
G1 X113.835 Y140.788 E-0.08337
G1 E-0.51708 F2100.00000
G1 Z0.800 F10800.000
G1 X145.410 Y185.948
G1 Z0.200
G1 E0.80000 F2100.00000
G1 F1200.000
G1 X147.907 Y185.948 E0.07828
G1 X147.925 Y186.068 E0.00380
G1 X145.410 Y186.068 E0.07884
G1 X145.410 Y186.008 E0.00187
G1 F8640.000
G1 X147.907 Y185.948 E-0.57663
G1 X147.925 Y186.068 E-0.02797
G1 X147.252 Y186.068 E-0.15540
G1 E-0.04000 F2100.00000
G1 Z0.800 F10800.000
G1 X158.127 Y200.530
G1 Z0.200
G1 E0.80000 F2100.00000
G1 F1200.000
G1 X158.340 Y200.357 E0.00861
G1 X158.575 Y200.215 E0.00861
G1 X158.827 Y200.105 E0.00861
G1 X159.091 Y200.031 E0.00861
G1 X159.363 Y199.994 E0.00861
G1 X159.637 Y199.994 E0.00861
G1 X159.909 Y200.031 E0.00861
G1 X160.173 Y200.105 E0.00861
G1 X160.425 Y200.214 E0.00861
G1 X160.660 Y200.357 E0.00861
G1 X160.873 Y200.530 E0.00861
G1 X161.060 Y200.731 E0.00861
G1 X161.218 Y200.955 E0.00861
G1 X161.344 Y201.199 E0.00861
G1 X161.436 Y201.457 E0.00861
G1 X161.492 Y201.726 E0.00861
G1 X161.511 Y202.000 E0.00861
G1 X161.492 Y202.274 E0.00861
G1 X161.436 Y202.543 E0.00861
G1 X161.344 Y202.801 E0.00860
G1 X161.218 Y203.045 E0.00861
G1 X161.060 Y203.269 E0.00861
G1 X160.873 Y203.470 E0.00861
G1 X160.660 Y203.643 E0.00861
G1 X160.425 Y203.785 E0.00861
G1 X160.173 Y203.895 E0.00861
G1 X159.909 Y203.969 E0.00861
G1 X159.637 Y204.006 E0.00861
G1 X159.363 Y204.006 E0.00861
G1 X159.091 Y203.969 E0.00861
G1 X158.827 Y203.895 E0.00861
G1 X158.595 Y203.794 E0.00791
G1 X158.341 Y203.644 E0.00926
G1 X158.127 Y203.470 E0.00864
G1 X157.955 Y203.285 E0.00791
G1 X157.782 Y203.046 E0.00926
G1 X157.656 Y202.801 E0.00864
G1 X157.564 Y202.543 E0.00861
G1 X157.508 Y202.274 E0.00861
G1 X157.489 Y202.000 E0.00861
G1 X157.508 Y201.726 E0.00861
G1 X157.564 Y201.457 E0.00861
G1 X157.656 Y201.199 E0.00861
G1 X157.782 Y200.955 E0.00861
G1 X157.940 Y200.731 E0.00861
G1 X158.086 Y200.574 E0.00672
G1 X158.065 Y200.263 F10800.000
G1 F8640.000
G1 X158.340 Y200.357 E-0.07712
G1 X158.575 Y200.215 E-0.06338
G1 X158.827 Y200.105 E-0.06338
G1 X159.091 Y200.031 E-0.06337
G1 X159.363 Y199.994 E-0.06338
G1 X159.637 Y199.994 E-0.06337
G1 X159.909 Y200.031 E-0.06338
G1 X160.173 Y200.105 E-0.06338
G1 X160.425 Y200.214 E-0.06338
G1 X160.660 Y200.357 E-0.06337
G1 X160.873 Y200.530 E-0.06337
G1 X161.018 Y200.686 E-0.04913
G1 E-0.04000 F2100.00000
G1 Z0.800 F10800.000
G1 X161.713 Y202.890
G1 Z0.200
G1 E0.80000 F2100.00000
G1 F1200.000
G1 X161.713 Y204.213 E0.04146
G1 X160.388 Y204.213 E0.04155
G1 X160.599 Y204.121 E0.00723
G1 X160.878 Y203.952 E0.01022
G1 X161.131 Y203.746 E0.01022
G1 X161.353 Y203.508 E0.01022
G1 X161.541 Y203.241 E0.01022
G1 X161.693 Y202.947 E0.01038
G1 F8640.000
G1 X161.713 Y204.213 E-0.29234
G1 X160.388 Y204.213 E-0.30601
G1 X160.599 Y204.121 E-0.05323
G1 X160.878 Y203.952 E-0.07529
G1 X160.989 Y203.861 E-0.03313
G1 E-0.04000 F2100.00000
G1 Z0.800 F10800.000
G1 X92.511 Y202.000
G1 Z0.200
G1 E0.80000 F2100.00000
G1 F1200.000
G1 X92.492 Y202.274 E0.00861
G1 X92.436 Y202.543 E0.00861
G1 X92.344 Y202.801 E0.00861
G1 X92.218 Y203.045 E0.00861
G1 X92.060 Y203.269 E0.00861
G1 X91.873 Y203.470 E0.00861
G1 X91.660 Y203.643 E0.00861
G1 X91.425 Y203.785 E0.00861
G1 X91.173 Y203.895 E0.00861
G1 X90.909 Y203.969 E0.00861
G1 X90.637 Y204.006 E0.00861
G1 X90.363 Y204.006 E0.00861
G1 X90.091 Y203.969 E0.00861
G1 X89.827 Y203.895 E0.00861
G1 X89.595 Y203.794 E0.00791
G1 X89.341 Y203.644 E0.00925
G1 X89.127 Y203.470 E0.00864
G1 X88.955 Y203.285 E0.00791
G1 X88.782 Y203.046 E0.00926
G1 X88.656 Y202.801 E0.00864
G1 X88.564 Y202.543 E0.00861
G1 X88.508 Y202.274 E0.00861
G1 X88.489 Y202.000 E0.00861
G1 X88.508 Y201.726 E0.00861
G1 X88.564 Y201.457 E0.00861
G1 X88.656 Y201.199 E0.00861
G1 X88.782 Y200.955 E0.00861
G1 X88.940 Y200.731 E0.00861
G1 X89.127 Y200.530 E0.00861
G1 X89.323 Y200.371 E0.00791
G1 X89.574 Y200.215 E0.00926
G1 X89.827 Y200.105 E0.00864
G1 X90.091 Y200.031 E0.00861
G1 X90.363 Y199.994 E0.00861
G1 X90.637 Y199.994 E0.00861
G1 X90.909 Y200.031 E0.00861
G1 X91.173 Y200.105 E0.00861
G1 X91.425 Y200.215 E0.00861
G1 X91.660 Y200.357 E0.00860
G1 X91.873 Y200.530 E0.00861
G1 X92.060 Y200.731 E0.00861
G1 X92.218 Y200.955 E0.00861
G1 X92.344 Y201.199 E0.00860
G1 X92.436 Y201.457 E0.00861
G1 X92.492 Y201.726 E0.00861
G1 X92.507 Y201.940 E0.00672
G1 X92.749 Y202.137 F10800.000
G1 F8640.000
G1 X92.492 Y202.274 E-0.07712
G1 X92.436 Y202.543 E-0.06338
G1 X92.344 Y202.801 E-0.06337
G1 X92.218 Y203.045 E-0.06337
G1 X92.060 Y203.269 E-0.06338
G1 X91.873 Y203.470 E-0.06338
G1 X91.660 Y203.643 E-0.06338
G1 X91.425 Y203.785 E-0.06337
G1 X91.173 Y203.895 E-0.06338
G1 X90.909 Y203.969 E-0.06337
G1 X90.637 Y204.006 E-0.06337
G1 X90.424 Y204.006 E-0.04913
G1 E-0.04000 F2100.00000
G1 Z0.800 F10800.000
G1 X89.612 Y204.213
G1 Z0.200
G1 E0.80000 F2100.00000
G1 F1200.000
G1 X88.287 Y204.213 E0.04155
G1 X88.287 Y202.890 E0.04146
G1 X88.460 Y203.244 E0.01235
G1 X88.663 Y203.525 E0.01087
G1 X88.869 Y203.746 E0.00947
G1 X89.125 Y203.954 E0.01032
G1 X89.423 Y204.131 E0.01087
G1 X89.557 Y204.189 E0.00459
G1 F8640.000
G1 X88.287 Y204.213 E-0.29336
G1 X88.287 Y202.890 E-0.30536
G1 X88.460 Y203.244 E-0.09092
G1 X88.639 Y203.491 E-0.07036
G1 E-0.04000 F2100.00000
G1 Z0.800 F10800.000
G1 X88.287 Y7.110
G1 Z0.200
G1 E0.80000 F2100.00000
G1 F1200.000
G1 X88.287 Y5.787 E0.04146
G1 X89.612 Y5.787 E0.04155
G1 X89.398 Y5.880 E0.00733
G1 X89.104 Y6.064 E0.01088
G1 X88.869 Y6.254 E0.00947
G1 X88.647 Y6.492 E0.01022
G1 X88.459 Y6.759 E0.01022
G1 X88.307 Y7.053 E0.01038
G1 X88.656 Y7.199 F10800.000
G1 F1200.000
G1 X88.782 Y6.955 E0.00861
G1 X88.940 Y6.731 E0.00861
G1 X89.127 Y6.530 E0.00861
G1 X89.323 Y6.371 E0.00791
G1 X89.574 Y6.215 E0.00926
G1 X89.827 Y6.105 E0.00864
G1 X90.091 Y6.031 E0.00861
G1 X90.363 Y5.994 E0.00861
G1 X90.637 Y5.994 E0.00860
G1 X90.909 Y6.031 E0.00861
G1 X91.173 Y6.105 E0.00861
G1 X91.425 Y6.214 E0.00861
G1 X91.660 Y6.357 E0.00861
G1 X91.873 Y6.530 E0.00861
G1 X92.060 Y6.731 E0.00861
G1 X92.218 Y6.955 E0.00861
G1 X92.344 Y7.199 E0.00860
G1 X92.436 Y7.457 E0.00861
G1 X92.492 Y7.726 E0.00861
G1 X92.511 Y8.000 E0.00861
G1 X92.492 Y8.274 E0.00861
G1 X92.436 Y8.543 E0.00861
G1 X92.344 Y8.801 E0.00861
G1 X92.218 Y9.045 E0.00861
G1 X92.060 Y9.269 E0.00861
G1 X91.873 Y9.470 E0.00861
G1 X91.660 Y9.643 E0.00861
G1 X91.425 Y9.785 E0.00860
G1 X91.173 Y9.895 E0.00861
G1 X90.909 Y9.969 E0.00861
G1 X90.637 Y10.006 E0.00860
G1 X90.363 Y10.006 E0.00861
G1 X90.091 Y9.969 E0.00861
G1 X89.827 Y9.895 E0.00861
G1 X89.575 Y9.785 E0.00861
G1 X89.340 Y9.643 E0.00860
G1 X89.127 Y9.470 E0.00861
G1 X88.940 Y9.269 E0.00861
G1 X88.782 Y9.045 E0.00861
G1 X88.656 Y8.801 E0.00861
G1 X88.564 Y8.543 E0.00861
G1 X88.508 Y8.274 E0.00861
G1 X88.489 Y8.000 E0.00861
G1 X88.508 Y7.726 E0.00861
G1 X88.564 Y7.457 E0.00861
G1 X88.635 Y7.255 E0.00672
G1 X88.492 Y6.978 F10800.000
G1 F8640.000
G1 X88.782 Y6.955 E-0.07713
G1 X88.940 Y6.731 E-0.06337
G1 X89.127 Y6.530 E-0.06338
G1 X89.323 Y6.371 E-0.05828
G1 X89.574 Y6.215 E-0.06817
G1 X89.827 Y6.105 E-0.06363
G1 X90.091 Y6.031 E-0.06337
G1 X90.363 Y5.994 E-0.06338
G1 X90.637 Y5.994 E-0.06337
G1 X90.909 Y6.031 E-0.06338
G1 X91.173 Y6.105 E-0.06338
G1 X91.369 Y6.190 E-0.04917
G1 E-0.04000 F2100.00000
G1 Z0.800 F10800.000
G1 X111.193 Y20.776
G1 Z0.200
G1 E0.80000 F2100.00000
G1 F1200.000
G1 X111.424 Y21.058 E0.01143
G1 X111.858 Y21.395 E0.01724
G1 X111.193 Y21.395 E0.02087
G1 X111.193 Y20.836 E0.01754
G1 F8640.000
G1 X111.424 Y21.058 E-0.07401
G1 X111.858 Y21.395 E-0.12698
G1 X111.193 Y21.395 E-0.15367
G1 X111.193 Y20.836 E-0.12915
G1 E-0.31619 F2100.00000
G1 Z0.800 F10800.000
G1 X115.135 Y19.888
G1 Z0.200
G1 E0.80000 F2100.00000
G1 F1200.000
G1 X115.864 Y19.888 E0.02286
G1 X115.859 Y20.186 E0.00934
G1 X117.845 Y20.186 E0.06228
